;FLAVOR:Marlin
;TIME:12558
;Filament used: 12.1587m
;Layer height: 0.28
;MINX:9.796
;MINY:16.003
;MINZ:0.28
;MAXX:227.906
;MAXY:215.788
;MAXZ:3.08
;Generated with Cura_SteamEngine 4.13.1
M140 S50
M105
M190 S50
M104 S200
M105
M109 S200
M82 ;absolute extrusion mode
; Ender 3 Custom Start G-code
G92 E0 ; Reset Extruder
G28 ; Home all axes
G1 Z2.0 F3000 ; Move Z Axis up little to prevent scratching of Heat Bed
G1 X0.1 Y20 Z0.3 F5000.0 ; Move to start position
G1 X0.1 Y200.0 Z0.3 F1500.0 E15 ; Draw the first line
G1 X0.4 Y200.0 Z0.3 F5000.0 ; Move to side a little
G1 X0.4 Y20 Z0.3 F1500.0 E30 ; Draw the second line
G92 E0 ; Reset Extruder
G1 Z2.0 F3000 ; Move Z Axis up little to prevent scratching of Heat Bed
G1 X5 Y20 Z0.3 F5000.0 ; Move over to prevent blob squish
G92 E0
G92 E0
G1 F2700 E-5
;LAYER_COUNT:11
;LAYER:0
M107
G0 F6000 X15.246 Y19.083 Z0.28
;TYPE:SKIRT
G1 F2700 E0
G1 F1200 X16.103 Y18.447 E0.04969
G1 X16.453 Y18.213 E0.0693
G1 X17.254 Y17.726 E0.11295
G1 X17.696 Y17.495 E0.13617
G1 X17.943 Y17.373 E0.149
G1 X18.8 Y16.994 E0.19263
G1 X19.391 Y16.782 E0.22187
G1 X19.672 Y16.69 E0.23564
G1 X20.747 Y16.397 E0.28752
G1 X20.953 Y16.352 E0.29734
G1 X21.914 Y16.187 E0.34274
G1 X22.441 Y16.12 E0.36748
G1 X23.042 Y16.06 E0.3956
G1 X23.363 Y16.037 E0.41059
G1 X24.002 Y16.01 E0.44037
G1 X24.599 Y16.003 E0.46817
G1 X67.263 Y16.003 E2.45478
G1 X68.119 Y16.014 E2.49465
G1 X68.911 Y16.054 E2.53157
G1 X69.188 Y16.078 E2.54452
G1 X69.602 Y16.122 E2.5639
G1 X69.858 Y16.154 E2.57592
G1 X70.516 Y16.256 E2.60692
G1 X70.917 Y16.331 E2.62592
G1 X71.831 Y16.543 E2.66961
G1 X72.29 Y16.681 E2.69193
G1 X72.555 Y16.767 E2.7049
G1 X73.434 Y17.094 E2.74857
G1 X73.974 Y17.339 E2.77618
G1 X74.237 Y17.467 E2.7898
G1 X74.951 Y17.848 E2.82749
G1 X75.942 Y18.424 E2.88086
G1 X78.187 Y19.692 E3.00092
G1 X80.426 Y20.875 E3.11883
G1 X82.696 Y21.994 E3.23668
G1 X84.959 Y23.029 E3.35255
G1 X87.28 Y24.012 E3.46992
G1 X89.642 Y24.937 E3.58804
G1 X92.018 Y25.789 E3.70557
G1 X94.396 Y26.567 E3.82208
G1 X96.801 Y27.278 E3.93886
G1 X99.246 Y27.928 E4.05666
G1 X101.702 Y28.508 E4.17417
G1 X104.171 Y29.014 E4.29152
G1 X106.61 Y29.445 E4.40685
G1 X109.147 Y29.819 E4.52626
G1 X111.616 Y30.112 E4.64204
G1 X114.139 Y30.339 E4.75999
G1 X116.646 Y30.494 E4.87695
G1 X119.16 Y30.578 E4.99408
G1 X121.683 Y30.59 E5.11156
G1 X124.206 Y30.531 E5.22908
G1 X126.703 Y30.402 E5.3455
G1 X129.228 Y30.201 E5.46345
G1 X131.712 Y29.93 E5.5798
G1 X134.205 Y29.589 E5.69697
G1 X136.712 Y29.172 E5.81531
G1 X139.164 Y28.693 E5.93164
G1 X141.592 Y28.146 E6.04753
G1 X144.059 Y27.518 E6.16607
G1 X146.501 Y26.822 E6.28431
G1 X148.879 Y26.07 E6.40044
G1 X151.244 Y25.249 E6.51701
G1 X153.64 Y24.339 E6.63636
G1 X155.929 Y23.396 E6.75163
G1 X158.24 Y22.366 E6.86945
G1 X160.519 Y21.272 E6.98716
G1 X162.777 Y20.108 E7.10545
G1 X163.231 Y19.866 E7.1294
G1 X163.424 Y19.767 E7.13951
G1 X164.311 Y19.36 E7.18495
G1 X164.708 Y19.199 E7.2049
G1 X165.591 Y18.884 E7.24855
G1 X166.162 Y18.724 E7.27616
G1 X166.369 Y18.672 E7.2861
G1 X167.137 Y18.508 E7.32267
G1 X167.409 Y18.46 E7.33553
G1 X168.244 Y18.346 E7.37477
G1 X168.732 Y18.298 E7.3976
G1 X169.44 Y18.251 E7.43064
G1 X169.819 Y18.241 E7.4483
G1 X170.434 Y18.234 E7.47694
G1 X213.229 Y18.235 E9.46965
G1 X213.926 Y18.245 E9.50211
G1 X214.481 Y18.267 E9.52797
G1 X214.929 Y18.303 E9.5489
G1 X215.421 Y18.355 E9.57194
G1 X215.677 Y18.387 E9.58395
G1 X216.364 Y18.495 E9.61633
G1 X216.754 Y18.569 E9.63482
G1 X218.098 Y18.913 E9.69942
G1 X218.36 Y18.998 E9.71224
G1 X219.238 Y19.325 E9.75587
G1 X219.765 Y19.563 E9.7828
G1 X220.031 Y19.692 E9.79656
G1 X221.009 Y20.23 E9.84854
G1 X221.171 Y20.33 E9.8574
G1 X222.021 Y20.911 E9.90534
G1 X222.572 Y21.327 E9.93749
G1 X223.296 Y21.924 E9.98119
G1 X223.966 Y22.58 E10.02485
G1 X224.471 Y23.157 E10.06056
G1 X224.854 Y23.627 E10.08879
G1 X225.448 Y24.427 E10.13518
G1 X225.657 Y24.737 E10.15259
G1 X226.309 Y25.838 E10.21218
G1 X226.403 Y26.02 E10.22171
G1 X226.887 Y27.095 E10.27661
G1 X226.985 Y27.348 E10.28924
G1 X227.398 Y28.645 E10.35262
G1 X227.476 Y28.956 E10.36755
G1 X227.649 Y29.768 E10.40621
G1 X227.723 Y30.265 E10.42961
G1 X227.787 Y30.769 E10.45327
G1 X227.826 Y31.117 E10.46957
G1 X227.848 Y31.349 E10.48042
G1 X227.884 Y31.847 E10.50367
G1 X227.898 Y32.287 E10.52417
G1 X227.906 Y32.983 E10.55658
G1 X227.905 Y78.891 E12.69425
G1 X227.895 Y79.589 E12.72676
G1 X227.851 Y80.42 E12.76551
G1 X227.825 Y80.708 E12.77897
G1 X227.785 Y81.083 E12.79653
G1 X227.753 Y81.339 E12.80855
G1 X227.645 Y82.026 E12.84093
G1 X227.571 Y82.416 E12.85941
G1 X227.231 Y83.748 E12.92342
G1 X227.146 Y84.011 E12.93629
G1 X226.98 Y84.485 E12.95968
G1 X226.676 Y85.297 E13.00005
G1 X226.197 Y86.532 E13.06173
G1 X225.358 Y88.886 E13.1781
G1 X224.583 Y91.272 E13.29492
G1 X223.866 Y93.711 E13.41329
G1 X223.228 Y96.134 E13.52996
G1 X222.655 Y98.59 E13.6474
G1 X222.15 Y101.062 E13.76488
G1 X221.723 Y103.523 E13.88119
G1 X221.358 Y106.036 E13.99943
G1 X221.068 Y108.515 E14.11565
G1 X220.847 Y111.03 E14.23321
G1 X220.697 Y113.546 E14.35057
G1 X220.618 Y116.07 E14.46816
G1 X220.61 Y118.595 E14.58573
G1 X220.674 Y121.081 E14.70153
G1 X220.81 Y123.61 E14.81946
G1 X221.016 Y126.121 E14.93678
G1 X221.29 Y128.602 E15.05301
G1 X221.64 Y131.115 E15.17115
G1 X222.055 Y133.577 E15.28741
G1 X222.549 Y136.08 E15.40621
G1 X223.098 Y138.496 E15.52157
G1 X223.732 Y140.961 E15.64009
G1 X224.431 Y143.394 E15.75796
G1 X225.181 Y145.748 E15.87301
G1 X226.204 Y148.651 E16.01633
G1 X226.543 Y149.564 E16.06168
G1 X226.704 Y150.03 E16.08464
G1 X226.79 Y150.298 E16.09774
G1 X227.058 Y151.289 E16.14554
G1 X227.105 Y151.502 E16.1557
G1 X227.275 Y152.484 E16.20211
G1 X227.34 Y152.995 E16.22609
G1 X227.38 Y153.356 E16.24301
G1 X227.401 Y153.58 E16.25348
G1 X227.436 Y154.067 E16.27622
G1 X227.45 Y154.507 E16.29672
G1 X227.458 Y155.203 E16.32913
G1 X227.457 Y201.111 E18.4668
G1 X227.447 Y201.809 E18.4993
G1 X227.424 Y202.373 E18.52558
G1 X227.389 Y202.811 E18.54604
G1 X227.337 Y203.303 E18.56908
G1 X227.303 Y203.575 E18.58185
G1 X227.211 Y204.179 E18.61029
G1 X227.151 Y204.509 E18.62591
G1 X226.816 Y205.857 E18.69059
G1 X226.718 Y206.167 E18.70573
G1 X226.398 Y207.048 E18.74938
G1 X226.131 Y207.644 E18.77979
G1 X226.009 Y207.896 E18.79282
G1 X225.461 Y208.893 E18.8458
G1 X225.331 Y209.103 E18.8573
G1 X224.763 Y209.933 E18.90413
G1 X224.451 Y210.347 E18.92827
G1 X224.17 Y210.704 E18.94942
G1 X224.042 Y210.86 E18.95882
G1 X223.417 Y211.56 E19.00252
G1 X222.556 Y212.353 E19.05702
G1 X222.416 Y212.469 E19.06549
G1 X222.052 Y212.759 E19.08716
G1 X221.765 Y212.977 E19.10394
G1 X221.243 Y213.349 E19.13379
G1 X220.963 Y213.537 E19.14949
G1 X219.846 Y214.195 E19.20986
G1 X219.6 Y214.321 E19.22273
G1 X218.375 Y214.858 E19.28501
G1 X218.157 Y214.938 E19.29582
G1 X217.084 Y215.27 E19.34812
G1 X216.778 Y215.348 E19.36283
G1 X215.483 Y215.597 E19.42423
G1 X214.946 Y215.667 E19.44945
G1 X214.587 Y215.708 E19.46627
G1 X214.381 Y215.728 E19.47591
G1 X213.472 Y215.778 E19.5183
G1 X212.676 Y215.788 E19.55537
G1 X169.929 Y215.787 E21.54585
G1 X169.231 Y215.777 E21.57835
G1 X168.667 Y215.754 E21.60464
G1 X168.229 Y215.719 E21.6251
G1 X167.737 Y215.667 E21.64814
G1 X167.481 Y215.635 E21.66015
G1 X166.794 Y215.527 E21.69253
G1 X166.404 Y215.453 E21.71102
G1 X165.06 Y215.109 E21.77561
G1 X164.795 Y215.023 E21.78859
G1 X163.916 Y214.696 E21.83226
G1 X163.417 Y214.47 E21.85777
G1 X163.172 Y214.352 E21.87043
G1 X162.134 Y213.782 E21.92557
G1 X161.369 Y213.306 E21.96752
G1 X159.136 Y211.96 E22.08893
G1 X156.932 Y210.716 E22.20678
G1 X154.727 Y209.551 E22.3229
G1 X152.451 Y208.43 E22.44104
G1 X150.198 Y207.399 E22.55641
G1 X147.858 Y206.409 E22.67472
G1 X145.503 Y205.487 E22.79248
G1 X143.16 Y204.647 E22.90838
G1 X140.722 Y203.85 E23.02782
G1 X138.336 Y203.143 E23.1437
G1 X135.903 Y202.498 E23.2609
G1 X133.443 Y201.917 E23.3786
G1 X130.987 Y201.413 E23.49534
G1 X128.527 Y200.98 E23.61165
G1 X125.998 Y200.607 E23.73069
G1 X123.526 Y200.314 E23.8466
G1 X121.002 Y200.087 E23.9646
G1 X118.508 Y199.933 E24.08096
G1 X115.984 Y199.849 E24.19855
G1 X113.462 Y199.837 E24.31598
G1 X110.938 Y199.896 E24.43354
G1 X108.455 Y200.024 E24.54932
G1 X105.907 Y200.228 E24.66834
G1 X103.454 Y200.495 E24.78324
G1 X100.898 Y200.846 E24.90337
G1 X98.482 Y201.247 E25.01741
G1 X95.957 Y201.741 E25.13722
G1 X93.553 Y202.283 E25.25197
G1 X91.092 Y202.909 E25.37021
G1 X88.63 Y203.612 E25.48943
G1 X86.298 Y204.348 E25.6033
G1 X83.868 Y205.193 E25.7231
G1 X81.521 Y206.084 E25.83999
G1 X79.208 Y207.039 E25.95652
G1 X76.925 Y208.055 E26.07287
G1 X74.78 Y209.099 E26.18396
G1 X73.812 Y209.56 E26.23388
G1 X72.948 Y209.927 E26.27759
G1 X72.483 Y210.09 E26.30053
G1 X72.2 Y210.182 E26.31439
G1 X71.148 Y210.467 E26.36514
G1 X70.933 Y210.514 E26.37539
G1 X69.975 Y210.68 E26.42066
G1 X69.465 Y210.745 E26.4446
G1 X69.101 Y210.785 E26.46165
G1 X68.877 Y210.806 E26.47213
G1 X68.016 Y210.853 E26.51228
G1 X67.254 Y210.863 E26.54777
G1 X24.473 Y210.862 E28.53983
G1 X23.775 Y210.852 E28.57234
G1 X23.211 Y210.829 E28.59862
G1 X22.773 Y210.794 E28.61908
G1 X22.281 Y210.742 E28.64212
G1 X22.025 Y210.71 E28.65413
G1 X21.338 Y210.602 E28.68651
G1 X20.948 Y210.528 E28.705
G1 X19.616 Y210.188 E28.76901
G1 X19.353 Y210.103 E28.78188
G1 X18.474 Y209.777 E28.82553
G1 X17.917 Y209.524 E28.85402
G1 X17.64 Y209.389 E28.86837
G1 X16.613 Y208.819 E28.92306
G1 X16.46 Y208.723 E28.93147
G1 X15.679 Y208.185 E28.97563
G1 X15.157 Y207.791 E29.00608
G1 X14.785 Y207.498 E29.02813
G1 X14.085 Y206.873 E29.07183
G1 X13.244 Y205.957 E29.12973
G1 X12.885 Y205.519 E29.1561
G1 X12.247 Y204.659 E29.20597
G1 X12.007 Y204.3 E29.22607
G1 X11.52 Y203.499 E29.26972
G1 X11.282 Y203.043 E29.29368
G1 X11.16 Y202.795 E29.30655
G1 X10.782 Y201.936 E29.35025
G1 X10.58 Y201.373 E29.3781
G1 X10.488 Y201.093 E29.39182
G1 X10.192 Y200.008 E29.44419
G1 X10.145 Y199.793 E29.45444
G1 X9.981 Y198.845 E29.49924
G1 X9.915 Y198.331 E29.52337
G1 X9.87 Y197.926 E29.54234
G1 X9.85 Y197.706 E29.55263
G1 X9.806 Y196.876 E29.59133
G1 X9.796 Y196.114 E29.62682
G1 X9.797 Y150.208 E31.76439
G1 X9.807 Y149.502 E31.79727
G1 X9.838 Y148.826 E31.82878
G1 X9.86 Y148.536 E31.84232
G1 X9.959 Y147.676 E31.88263
G1 X10.037 Y147.175 E31.90624
G1 X10.26 Y146.101 E31.95732
G1 X10.326 Y145.847 E31.96954
G1 X10.642 Y144.832 E32.01904
G1 X10.944 Y144.007 E32.05995
G1 X11.776 Y141.639 E32.17682
G1 X12.549 Y139.223 E32.29493
G1 X13.246 Y136.81 E32.41189
G1 X13.886 Y134.339 E32.53074
G1 X14.446 Y131.896 E32.64745
G1 X14.93 Y129.452 E32.76346
G1 X15.352 Y126.965 E32.88092
G1 X15.702 Y124.487 E32.99746
G1 X15.984 Y121.966 E33.11558
G1 X16.196 Y119.432 E33.23398
G1 X16.332 Y116.963 E33.34912
G1 X16.4 Y114.431 E33.46707
G1 X16.396 Y111.906 E33.58464
G1 X16.322 Y109.395 E33.70161
G1 X16.175 Y106.882 E33.81883
G1 X15.961 Y104.401 E33.93479
G1 X15.669 Y101.875 E34.05319
G1 X15.309 Y99.373 E34.17089
G1 X14.88 Y96.89 E34.28823
G1 X14.388 Y94.455 E34.4039
G1 X13.819 Y91.998 E34.52134
G1 X13.18 Y89.555 E34.63892
G1 X12.466 Y87.113 E34.75739
G1 X11.711 Y84.776 E34.87175
G1 X10.934 Y82.6 E34.97934
G1 X10.642 Y81.748 E35.02128
G1 X10.349 Y80.736 E35.07033
G1 X10.291 Y80.493 E35.08197
G1 X10.082 Y79.361 E35.13557
G1 X10.012 Y78.824 E35.16079
G1 X9.971 Y78.465 E35.17761
G1 X9.951 Y78.259 E35.18725
G1 X9.901 Y77.35 E35.22964
G1 X9.891 Y76.554 E35.26671
G1 X9.892 Y30.679 E37.40284
G1 X9.902 Y29.981 E37.43534
G1 X9.946 Y29.143 E37.47442
G1 X9.973 Y28.846 E37.48831
G1 X10.016 Y28.451 E37.50681
G1 X10.048 Y28.2 E37.51859
G1 X10.147 Y27.569 E37.54833
G1 X10.213 Y27.216 E37.56505
G1 X10.522 Y25.973 E37.62469
G1 X10.614 Y25.677 E37.63913
G1 X10.93 Y24.794 E37.6828
G1 X11.185 Y24.217 E37.71217
G1 X11.273 Y24.032 E37.72171
G1 X11.434 Y23.707 E37.7386
G1 X11.936 Y22.818 E37.78614
G1 X12.046 Y22.643 E37.79576
G1 X12.584 Y21.864 E37.83985
G1 X12.934 Y21.401 E37.86687
G1 X13.179 Y21.087 E37.88542
G1 X13.796 Y20.381 E37.92908
G1 X14.798 Y19.45 E37.99277
G1 X15.246 Y19.083 E38.01973
G0 F6000 X15.5 Y19.392
G1 F1200 X16.326 Y18.78 E38.0676
G1 X16.676 Y18.546 E38.08721
G1 X17.462 Y18.068 E38.13004
G1 X17.873 Y17.854 E38.15162
G1 X18.12 Y17.732 E38.16445
G1 X18.962 Y17.361 E38.20729
G1 X19.516 Y17.162 E38.2347
G1 X19.797 Y17.07 E38.24847
G1 X20.833 Y16.788 E38.29846
G1 X21.039 Y16.743 E38.30828
G1 X21.964 Y16.584 E38.35199
G1 X22.491 Y16.517 E38.37672
G1 X23.07 Y16.459 E38.40382
G1 X23.391 Y16.436 E38.4188
G1 X24.008 Y16.41 E38.44756
G1 X24.599 Y16.403 E38.47508
G1 X67.263 Y16.403 E40.4617
G1 X68.113 Y16.414 E40.50128
G1 X68.876 Y16.453 E40.53685
G1 X69.153 Y16.477 E40.5498
G1 X69.553 Y16.519 E40.56853
G1 X69.809 Y16.551 E40.58054
G1 X70.443 Y16.65 E40.61042
G1 X70.844 Y16.725 E40.62942
G1 X72.167 Y17.062 E40.69299
G1 X72.432 Y17.148 E40.70596
G1 X73.295 Y17.47 E40.74885
G1 X73.799 Y17.699 E40.77463
G1 X74.062 Y17.827 E40.78825
G1 X74.75 Y18.194 E40.82456
G1 X75.675 Y18.732 E40.87439
G1 X78.025 Y20.059 E41.00005
G1 X80.241 Y21.23 E41.11676
G1 X82.49 Y22.338 E41.2335
G1 X84.816 Y23.402 E41.3526
G1 X87.157 Y24.395 E41.47101
G1 X89.497 Y25.31 E41.58801
G1 X91.864 Y26.159 E41.7051
G1 X94.264 Y26.945 E41.82269
G1 X96.699 Y27.665 E41.94093
G1 X99.157 Y28.318 E42.05935
G1 X101.634 Y28.903 E42.17787
G1 X104.092 Y29.406 E42.29469
G1 X106.548 Y29.84 E42.41083
G1 X109.078 Y30.213 E42.52991
G1 X111.604 Y30.513 E42.64836
G1 X114.076 Y30.735 E42.76393
G1 X116.646 Y30.895 E42.88383
G1 X119.144 Y30.978 E43.00021
G1 X121.691 Y30.99 E43.11881
G1 X124.201 Y30.932 E43.23572
G1 X126.755 Y30.8 E43.3548
G1 X129.233 Y30.602 E43.47055
G1 X131.773 Y30.325 E43.58953
G1 X134.287 Y29.981 E43.70768
G1 X136.748 Y29.572 E43.82385
G1 X139.263 Y29.081 E43.94317
G1 X141.707 Y28.53 E44.05983
G1 X144.153 Y27.907 E44.17736
G1 X146.604 Y27.209 E44.29603
G1 X149.015 Y26.447 E44.41377
G1 X151.381 Y25.625 E44.5304
G1 X153.755 Y24.724 E44.64863
G1 X156.108 Y23.754 E44.76714
G1 X158.427 Y22.72 E44.88537
G1 X160.696 Y21.631 E45.00257
G1 X162.937 Y20.477 E45.11994
G1 X163.194 Y20.337 E45.13357
G1 X163.607 Y20.122 E45.15525
G1 X164.461 Y19.731 E45.19898
G1 X164.858 Y19.57 E45.21893
G1 X165.726 Y19.261 E45.26183
G1 X166.259 Y19.112 E45.2876
G1 X166.466 Y19.06 E45.29754
G1 X167.207 Y18.902 E45.33282
G1 X167.479 Y18.854 E45.34568
G1 X168.283 Y18.744 E45.38347
G1 X168.771 Y18.696 E45.4063
G1 X169.453 Y18.651 E45.43813
G1 X169.824 Y18.641 E45.45541
G1 X170.434 Y18.634 E45.48382
G1 X213.223 Y18.635 E47.47625
G1 X213.92 Y18.645 E47.50871
G1 X214.455 Y18.666 E47.53364
G1 X214.89 Y18.701 E47.55396
G1 X215.102 Y18.722 E47.56388
G1 X215.372 Y18.752 E47.57653
G1 X215.628 Y18.784 E47.58854
G1 X216.289 Y18.888 E47.6197
G1 X216.679 Y18.962 E47.63819
G1 X217.974 Y19.293 E47.70043
G1 X218.236 Y19.378 E47.71325
G1 X219.099 Y19.7 E47.75614
G1 X219.59 Y19.923 E47.78125
G1 X219.856 Y20.052 E47.79502
G1 X220.799 Y20.57 E47.84512
G1 X220.961 Y20.67 E47.85398
G1 X221.78 Y21.23 E47.90018
G1 X222.331 Y21.646 E47.93233
G1 X223.041 Y22.232 E47.9752
G1 X223.697 Y22.878 E48.01807
G1 X224.161 Y23.41 E48.05094
G1 X224.544 Y23.88 E48.07917
G1 X225.116 Y24.65 E48.12383
G1 X225.325 Y24.96 E48.14124
G1 X225.954 Y26.022 E48.19872
G1 X226.048 Y26.204 E48.20825
G1 X226.514 Y27.239 E48.26111
G1 X226.612 Y27.492 E48.27374
G1 X227.01 Y28.742 E48.33483
G1 X227.088 Y29.053 E48.34976
G1 X227.257 Y29.853 E48.38783
G1 X227.327 Y30.316 E48.40963
G1 X227.391 Y30.82 E48.43329
G1 X227.428 Y31.154 E48.44894
G1 X227.45 Y31.386 E48.45979
G1 X227.484 Y31.868 E48.48229
G1 X227.498 Y32.292 E48.50204
G1 X227.506 Y32.983 E48.53422
G1 X227.505 Y78.885 E50.67161
G1 X227.495 Y79.583 E50.70412
G1 X227.453 Y80.384 E50.74146
G1 X227.427 Y80.672 E50.75493
G1 X227.388 Y81.034 E50.77188
G1 X227.356 Y81.29 E50.7839
G1 X227.252 Y81.951 E50.81505
G1 X227.178 Y82.341 E50.83354
G1 X226.85 Y83.625 E50.89525
G1 X226.765 Y83.888 E50.90812
G1 X226.606 Y84.345 E50.93065
G1 X226.303 Y85.152 E50.97079
G1 X225.831 Y86.369 E51.03157
G1 X224.977 Y88.764 E51.14997
G1 X224.195 Y91.173 E51.2679
G1 X223.483 Y93.593 E51.38536
G1 X222.835 Y96.055 E51.50391
G1 X222.267 Y98.491 E51.62038
G1 X221.758 Y100.985 E51.73891
G1 X221.326 Y103.469 E51.85631
G1 X220.964 Y105.964 E51.9737
