;FLAVOR:Marlin
;TIME:12759
;Filament used: 12.5953m
;Layer height: 0.28
;MINX:4.286
;MINY:11.456
;MINZ:0.28
;MAXX:228.396
;MAXY:216.094
;MAXZ:3.08
;Generated with Cura_SteamEngine 4.13.1
M140 S50
M105
M190 S50
M104 S200
M105
M109 S200
M82 ;absolute extrusion mode
; Ender 3 Custom Start G-code
G92 E0 ; Reset Extruder
G28 ; Home all axes
G1 Z2.0 F3000 ; Move Z Axis up little to prevent scratching of Heat Bed
G1 X0.1 Y20 Z0.3 F5000.0 ; Move to start position
G1 X0.1 Y200.0 Z0.3 F1500.0 E15 ; Draw the first line
G1 X0.4 Y200.0 Z0.3 F5000.0 ; Move to side a little
G1 X0.4 Y20 Z0.3 F1500.0 E30 ; Draw the second line
G92 E0 ; Reset Extruder
G1 Z2.0 F3000 ; Move Z Axis up little to prevent scratching of Heat Bed
G1 X5 Y20 Z0.3 F5000.0 ; Move over to prevent blob squish
G92 E0
G92 E0
G1 F2700 E-5
;LAYER_COUNT:11
;LAYER:0
M107
G0 F6000 X11.178 Y15.737 Z0.28
;TYPE:SKIRT
G1 F2700 E0
G1 F1200 X11.487 Y15.525 E0.01745
G1 X12.391 Y14.967 E0.06692
G1 X12.715 Y14.788 E0.08415
G1 X13.869 Y14.235 E0.14374
G1 X14.133 Y14.127 E0.15702
G1 X15.015 Y13.809 E0.20068
G1 X15.55 Y13.657 E0.22658
G1 X15.833 Y13.584 E0.24018
G1 X16.709 Y13.395 E0.28191
G1 X16.958 Y13.352 E0.29368
G1 X17.778 Y13.242 E0.3322
G1 X18.257 Y13.196 E0.35461
G1 X18.884 Y13.154 E0.38387
G1 X19.039 Y13.148 E0.3911
G1 X19.325 Y13.141 E0.40442
G1 X19.94 Y13.134 E0.43306
G1 X62.735 Y13.135 E2.42577
G1 X63.433 Y13.145 E2.45828
G1 X63.997 Y13.168 E2.48456
G1 X64.435 Y13.203 E2.50502
G1 X64.927 Y13.255 E2.52806
G1 X65.183 Y13.287 E2.54007
G1 X65.87 Y13.395 E2.57245
G1 X66.26 Y13.469 E2.59094
G1 X67.604 Y13.813 E2.65554
G1 X67.869 Y13.899 E2.66851
G1 X68.748 Y14.226 E2.71218
G1 X69.295 Y14.475 E2.74016
G1 X69.578 Y14.613 E2.75483
G1 X69.996 Y14.828 E2.77671
G1 X70.73 Y15.227 E2.81561
G1 X71.918 Y15.892 E2.87901
G1 X74.159 Y17.065 E2.99679
G1 X76.398 Y18.158 E3.11281
G1 X78.713 Y19.207 E3.23115
G1 X81.066 Y20.197 E3.35002
G1 X83.385 Y21.091 E3.46575
G1 X85.728 Y21.922 E3.58151
G1 X88.137 Y22.701 E3.6994
G1 X90.573 Y23.412 E3.81756
G1 X93.015 Y24.051 E3.9351
G1 X95.461 Y24.62 E4.05204
G1 X97.926 Y25.116 E4.16912
G1 X100.4 Y25.544 E4.28603
G1 X102.882 Y25.9 E4.40279
G1 X105.389 Y26.188 E4.52029
G1 X107.917 Y26.407 E4.63845
G1 X110.4 Y26.551 E4.75426
G1 X112.922 Y26.626 E4.87175
G1 X115.445 Y26.63 E4.98923
G1 X117.969 Y26.562 E5.1068
G1 X120.454 Y26.425 E5.22269
G1 X123.01 Y26.211 E5.34212
G1 X125.48 Y25.934 E5.45786
G1 X127.975 Y25.582 E5.57518
G1 X130.433 Y25.164 E5.69128
G1 X132.949 Y24.663 E5.81074
G1 X135.346 Y24.114 E5.92524
G1 X137.812 Y23.478 E6.04383
G1 X140.262 Y22.769 E6.16259
G1 X142.611 Y22.017 E6.27744
G1 X145.007 Y21.175 E6.39569
G1 X147.369 Y20.269 E6.51349
G1 X149.679 Y19.307 E6.63001
G1 X151.99 Y18.268 E6.748
G1 X154.244 Y17.175 E6.86464
G1 X156.456 Y16.026 E6.98071
G1 X158.679 Y14.788 E7.09919
G1 X160.43 Y13.742 E7.19416
G1 X161.149 Y13.322 E7.23294
G1 X161.844 Y12.949 E7.26966
G1 X162.084 Y12.831 E7.28212
G1 X163.325 Y12.312 E7.34475
G1 X163.581 Y12.223 E7.35737
G1 X164.624 Y11.917 E7.40799
G1 X164.828 Y11.868 E7.41776
G1 X165.324 Y11.761 E7.44138
G1 X165.423 Y11.742 E7.44608
G1 X166.116 Y11.632 E7.47875
G1 X166.559 Y11.576 E7.49954
G1 X166.9 Y11.538 E7.51552
G1 X167.153 Y11.514 E7.52735
G1 X168.026 Y11.466 E7.56806
G1 X168.788 Y11.456 E7.60355
G1 X211.41 Y11.456 E9.58821
G1 X212.272 Y11.467 E9.62835
G1 X212.948 Y11.498 E9.65986
G1 X213.238 Y11.52 E9.6734
G1 X214.092 Y11.618 E9.71343
G1 X214.595 Y11.696 E9.73713
G1 X215.684 Y11.922 E9.78892
G1 X215.918 Y11.983 E9.80018
G1 X216.965 Y12.312 E9.85128
G1 X217.135 Y12.375 E9.85973
G1 X218.271 Y12.871 E9.91744
G1 X218.576 Y13.025 E9.93335
G1 X219.394 Y13.483 E9.97701
G1 X219.821 Y13.76 E10.00071
G1 X220.275 Y14.07 E10.02631
G1 X221.12 Y14.709 E10.07564
G1 X221.38 Y14.926 E10.09141
G1 X222.074 Y15.557 E10.13508
G1 X222.482 Y15.983 E10.16255
G1 X222.608 Y16.122 E10.17128
G1 X223.319 Y16.992 E10.2236
G1 X223.472 Y17.2 E10.23563
G1 X223.683 Y17.497 E10.25259
G1 X223.886 Y17.793 E10.2693
G1 X224.442 Y18.695 E10.31864
G1 X224.6 Y18.981 E10.33386
G1 X225.172 Y20.182 E10.3958
G1 X225.258 Y20.395 E10.4065
G1 X225.657 Y21.571 E10.46432
G1 X225.725 Y21.816 E10.47616
G1 X225.935 Y22.717 E10.51924
G1 X225.996 Y23.04 E10.53455
G1 X226.134 Y24.007 E10.58003
G1 X226.18 Y24.476 E10.60197
G1 X226.225 Y25.13 E10.6325
G1 X226.239 Y25.583 E10.6536
G1 X226.245 Y26.099 E10.67763
G1 X226.244 Y72.113 E12.82023
G1 X226.234 Y72.811 E12.85274
G1 X226.211 Y73.375 E12.87902
G1 X226.176 Y73.813 E12.89948
G1 X226.124 Y74.305 E12.92252
G1 X226.092 Y74.561 E12.93453
G1 X225.983 Y75.253 E12.96715
G1 X225.909 Y75.642 E12.98559
G1 X225.566 Y76.981 E13.04995
G1 X225.48 Y77.246 E13.06293
G1 X225.319 Y77.706 E13.08562
G1 X225.214 Y77.984 E13.09946
G1 X224.356 Y80.19 E13.20968
G1 X223.507 Y82.57 E13.32734
G1 X222.718 Y84.994 E13.44604
G1 X222.017 Y87.377 E13.5617
G1 X221.37 Y89.833 E13.67997
G1 X220.789 Y92.311 E13.79848
G1 X220.3 Y94.715 E13.91271
G1 X219.862 Y97.227 E14.03145
G1 X219.496 Y99.734 E14.14942
G1 X219.207 Y102.209 E14.26545
G1 X218.984 Y104.724 E14.38302
G1 X218.834 Y107.236 E14.5002
G1 X218.755 Y109.732 E14.61648
G1 X218.747 Y112.256 E14.73401
G1 X218.81 Y114.806 E14.85278
G1 X218.941 Y117.268 E14.96759
G1 X219.149 Y119.81 E15.08635
G1 X219.425 Y122.317 E15.20379
G1 X219.772 Y124.806 E15.32081
G1 X220.188 Y127.288 E15.43799
G1 X220.67 Y129.733 E15.55403
G1 X221.226 Y132.182 E15.67097
G1 X221.856 Y134.639 E15.78908
G1 X222.554 Y137.075 E15.90708
G1 X223.316 Y139.47 E16.02411
G1 X224.134 Y141.811 E16.13957
G1 X225.049 Y144.211 E16.25918
G1 X225.988 Y146.478 E16.37343
G1 X226.773 Y148.213 E16.46211
G1 X227.224 Y149.234 E16.51408
G1 X227.619 Y150.267 E16.56558
G1 X227.712 Y150.552 E16.57954
G1 X228.002 Y151.616 E16.63089
G1 X228.047 Y151.822 E16.64071
G1 X228.212 Y152.78 E16.68597
G1 X228.279 Y153.306 E16.71066
G1 X228.339 Y153.907 E16.73879
G1 X228.362 Y154.227 E16.75373
G1 X228.389 Y154.87 E16.78369
G1 X228.396 Y155.468 E16.81154
G1 X228.395 Y201.417 E18.95112
G1 X228.385 Y202.115 E18.98362
G1 X228.344 Y202.917 E19.02102
G1 X228.32 Y203.191 E19.03382
G1 X228.278 Y203.585 E19.05227
G1 X228.246 Y203.843 E19.06438
G1 X228.151 Y204.464 E19.09363
G1 X228.08 Y204.853 E19.11205
G1 X227.773 Y206.113 E19.17243
G1 X227.733 Y206.243 E19.17877
G1 X227.39 Y207.196 E19.22593
G1 X227.257 Y207.519 E19.24219
G1 X226.65 Y208.765 E19.30673
G1 X226.525 Y208.985 E19.31851
G1 X226.094 Y209.683 E19.35671
G1 X225.727 Y210.2 E19.38624
G1 X225.333 Y210.723 E19.41673
G1 X224.972 Y211.176 E19.4437
G1 X224.342 Y211.87 E19.48734
G1 X223.483 Y212.652 E19.54143
G1 X223.018 Y213.032 E19.5694
G1 X222.192 Y213.644 E19.61726
G1 X221.875 Y213.857 E19.63505
G1 X221.075 Y214.347 E19.67873
G1 X220.659 Y214.566 E19.70062
G1 X220.393 Y214.699 E19.71447
G1 X219.537 Y215.082 E19.75814
G1 X218.897 Y215.314 E19.78984
G1 X218.616 Y215.406 E19.8036
G1 X217.542 Y215.698 E19.85543
G1 X217.327 Y215.745 E19.86568
G1 X216.369 Y215.911 E19.91095
G1 X215.859 Y215.976 E19.93489
G1 X215.495 Y216.016 E19.95194
G1 X215.271 Y216.037 E19.96242
G1 X214.41 Y216.084 E20.00257
G1 X213.648 Y216.094 E20.03805
G1 X170.869 Y216.093 E22.03002
G1 X170.164 Y216.083 E22.06285
G1 X169.491 Y216.053 E22.09422
G1 X169.2 Y216.031 E22.10781
G1 X168.343 Y215.932 E22.14798
G1 X167.84 Y215.854 E22.17169
G1 X166.773 Y215.634 E22.22241
G1 X166.537 Y215.573 E22.23376
G1 X165.437 Y215.226 E22.28747
G1 X165.207 Y215.14 E22.29891
G1 X164.04 Y214.625 E22.3583
G1 X163.808 Y214.506 E22.37044
G1 X163.163 Y214.147 E22.40482
G1 X162.9 Y213.989 E22.4191
G1 X162.479 Y213.726 E22.44222
G1 X162.292 Y213.614 E22.45237
G1 X161.519 Y213.117 E22.49516
G1 X159.338 Y211.799 E22.61382
G1 X157.182 Y210.577 E22.72922
G1 X154.932 Y209.386 E22.84776
G1 X152.675 Y208.271 E22.96498
G1 X150.381 Y207.219 E23.08249
G1 X148.073 Y206.236 E23.19931
G1 X145.72 Y205.312 E23.31702
G1 X143.381 Y204.472 E23.43274
G1 X140.973 Y203.681 E23.55076
G1 X138.555 Y202.962 E23.66823
G1 X136.104 Y202.309 E23.78634
G1 X133.684 Y201.736 E23.90214
G1 X131.212 Y201.222 E24.01971
G1 X128.709 Y200.779 E24.13807
G1 X126.256 Y200.415 E24.25354
G1 X123.742 Y200.114 E24.37144
G1 X121.23 Y199.884 E24.4889
G1 X118.759 Y199.729 E24.60418
G1 X116.203 Y199.641 E24.72327
G1 X113.677 Y199.625 E24.84089
G1 X111.183 Y199.68 E24.95705
G1 X108.666 Y199.807 E25.07441
G1 X106.149 Y200.005 E25.19197
G1 X103.653 Y200.273 E25.30886
G1 X101.179 Y200.61 E25.42513
G1 X98.648 Y201.028 E25.54458
G1 X96.209 Y201.501 E25.66026
G1 X93.757 Y202.05 E25.77726
G1 X91.32 Y202.667 E25.89432
G1 X88.885 Y203.359 E26.01219
G1 X86.474 Y204.117 E26.12988
G1 X84.102 Y204.939 E26.24677
G1 X81.738 Y205.834 E26.36448
G1 X79.426 Y206.783 E26.48085
G1 X77.149 Y207.795 E26.59688
G1 X74.829 Y208.905 E26.71663
G1 X72.654 Y210.022 E26.83048
G1 X69.283 Y211.906 E27.0103
G1 X68.941 Y212.089 E27.02837
G1 X68.645 Y212.241 E27.04386
G1 X67.394 Y212.788 E27.10744
G1 X67.175 Y212.868 E27.11829
G1 X66.153 Y213.186 E27.16813
G1 X65.886 Y213.255 E27.18097
G1 X65.207 Y213.408 E27.21338
G1 X65.108 Y213.427 E27.21808
G1 X64.415 Y213.537 E27.25075
G1 X63.972 Y213.593 E27.27154
G1 X63.631 Y213.631 E27.28752
G1 X63.378 Y213.655 E27.29935
G1 X62.505 Y213.703 E27.34006
G1 X61.743 Y213.713 E27.37555
G1 X18.963 Y213.712 E29.36756
G1 X18.265 Y213.702 E29.40007
G1 X17.701 Y213.679 E29.42635
G1 X17.263 Y213.644 E29.44681
G1 X16.775 Y213.593 E29.46966
G1 X16.494 Y213.558 E29.48285
G1 X15.866 Y213.461 E29.51244
G1 X15.545 Y213.402 E29.52763
G1 X14.219 Y213.072 E29.59126
G1 X13.912 Y212.975 E29.60625
G1 X13.03 Y212.654 E29.64996
G1 X12.415 Y212.378 E29.68135
G1 X12.158 Y212.253 E29.69465
G1 X11.128 Y211.682 E29.74949
G1 X10.903 Y211.541 E29.76186
G1 X10.126 Y211.007 E29.80576
G1 X9.729 Y210.708 E29.8289
G1 X9.279 Y210.35 E29.85568
G1 X9.118 Y210.215 E29.86546
G1 X8.426 Y209.582 E29.90913
G1 X7.746 Y208.84 E29.95599
G1 X7.634 Y208.706 E29.96413
G1 X7.326 Y208.321 E29.98708
G1 X7.095 Y208.018 E30.00483
G1 X6.696 Y207.46 E30.03677
G1 X6.539 Y207.225 E30.04993
G1 X5.889 Y206.116 E30.10978
G1 X5.719 Y205.783 E30.12719
G1 X5.328 Y204.93 E30.17089
G1 X5.065 Y204.213 E30.20645
G1 X4.977 Y203.945 E30.21958
G1 X4.673 Y202.821 E30.2738
G1 X4.626 Y202.602 E30.28423
G1 X4.47 Y201.692 E30.32722
G1 X4.404 Y201.177 E30.3514
G1 X4.366 Y200.842 E30.3671
G1 X4.346 Y200.636 E30.37674
G1 X4.296 Y199.727 E30.41913
G1 X4.286 Y198.931 E30.45619
G1 X4.287 Y153.056 E32.59233
G1 X4.297 Y152.358 E32.62483
G1 X4.32 Y151.794 E32.65112
G1 X4.355 Y151.356 E32.67158
G1 X4.407 Y150.864 E32.69461
G1 X4.439 Y150.608 E32.70663
G1 X4.547 Y149.921 E32.73901
G1 X4.621 Y149.531 E32.75749
G1 X4.957 Y148.211 E32.82092
G1 X5.042 Y147.947 E32.83383
G1 X5.318 Y147.187 E32.87148
G1 X5.887 Y145.787 E32.94185
G1 X5.923 Y145.701 E32.94619
G1 X6.845 Y143.328 E33.06474
G1 X7.696 Y140.937 E33.18291
G1 X8.463 Y138.574 E33.29859
G1 X9.174 Y136.152 E33.41613
G1 X9.815 Y133.716 E33.53342
G1 X10.388 Y131.255 E33.65108
G1 X10.898 Y128.757 E33.7698
G1 X11.318 Y126.336 E33.88422
G1 X11.682 Y123.821 E34.00255
G1 X11.972 Y121.332 E34.11923
G1 X12.192 Y118.828 E34.23627
G1 X12.341 Y116.308 E34.35382
G1 X12.419 Y113.779 E34.47164
G1 X12.426 Y111.256 E34.58912
G1 X12.362 Y108.764 E34.7052
G1 X12.227 Y106.26 E34.82196
G1 X12.017 Y103.71 E34.9411
G1 X11.744 Y101.243 E35.05668
G1 X11.394 Y98.74 E35.17436
G1 X10.974 Y96.251 E35.2919
G1 X10.485 Y93.779 E35.40923
G1 X9.93 Y91.34 E35.52571
G1 X9.301 Y88.897 E35.64317
G1 X8.6 Y86.459 E35.7613
G1 X7.847 Y84.096 E35.87678
G1 X7.015 Y81.719 E35.99405
G1 X6.506 Y80.394 E36.06014
G1 X6.082 Y79.248 E36.11704
G1 X5.872 Y78.621 E36.14783
G1 X5.812 Y78.423 E36.15746
G1 X5.578 Y77.516 E36.20108
G1 X5.55 Y77.384 E36.20736
G1 X5.402 Y76.511 E36.24859
G1 X5.318 Y75.861 E36.27911
G1 X5.248 Y75.134 E36.31312
G1 X5.233 Y74.893 E36.32436
G1 X5.213 Y74.348 E36.34976
G1 X5.206 Y73.731 E36.37849
G1 X5.207 Y27.812 E38.51667
G1 X5.217 Y27.105 E38.5496
G1 X5.249 Y26.412 E38.5819
G1 X5.272 Y26.115 E38.59577
G1 X5.367 Y25.291 E38.63439
G1 X5.435 Y24.849 E38.65522
G1 X5.616 Y23.935 E38.6986
G1 X5.684 Y23.654 E38.71206
G1 X6.044 Y22.464 E38.76996
G1 X6.112 Y22.278 E38.77918
G1 X6.637 Y21.07 E38.84051
G1 X6.758 Y20.832 E38.85294
G1 X7.253 Y19.96 E38.89963
G1 X7.47 Y19.615 E38.91861
G1 X7.731 Y19.219 E38.94069
G1 X7.854 Y19.041 E38.95077
G1 X8.54 Y18.15 E39.00313
G1 X8.745 Y17.91 E39.01783
G1 X9.384 Y17.223 E39.06152
G1 X9.873 Y16.769 E39.09259
G1 X10.11 Y16.562 E39.10724
G1 X10.876 Y15.951 E39.15286
G1 X11.178 Y15.737 E39.1701
G0 F6000 X11.404 Y16.066
G1 F1200 X11.713 Y15.854 E39.18755
G1 X12.584 Y15.317 E39.23519
G1 X12.908 Y15.138 E39.25243
G1 X14.02 Y14.605 E39.30985
G1 X14.284 Y14.497 E39.32313
G1 X15.151 Y14.186 E39.36602
G1 X15.65 Y14.044 E39.39018
G1 X15.933 Y13.971 E39.40379
G1 X16.777 Y13.79 E39.44398
G1 X17.026 Y13.747 E39.45575
G1 X17.817 Y13.641 E39.49291
G1 X18.296 Y13.595 E39.51532
G1 X18.899 Y13.554 E39.54346
G1 X19.33 Y13.541 E39.56354
G1 X19.94 Y13.534 E39.59194
G1 X62.729 Y13.535 E41.58438
G1 X63.427 Y13.545 E41.61688
G1 X63.971 Y13.567 E41.64224
G1 X64.396 Y13.601 E41.66209
G1 X64.608 Y13.622 E41.67201
G1 X64.878 Y13.652 E41.68466
G1 X65.134 Y13.684 E41.69667
G1 X65.795 Y13.788 E41.72783
G1 X66.185 Y13.862 E41.74631
G1 X67.481 Y14.194 E41.80861
G1 X67.746 Y14.28 E41.82158
G1 X68.609 Y14.602 E41.86447
G1 X69.12 Y14.834 E41.89061
G1 X69.403 Y14.972 E41.90527
G1 X69.806 Y15.18 E41.92638
G1 X70.535 Y15.576 E41.96501
G1 X71.71 Y16.234 E42.02772
G1 X73.977 Y17.421 E42.14688
G1 X76.236 Y18.524 E42.26394
G1 X78.572 Y19.582 E42.38335
G1 X80.904 Y20.563 E42.50115
G1 X83.244 Y21.466 E42.61794
G1 X85.619 Y22.308 E42.73528
G1 X88.007 Y23.079 E42.85212
G1 X90.465 Y23.797 E42.97136
G1 X92.902 Y24.435 E43.08866
G1 X95.389 Y25.013 E43.20755
G1 X97.851 Y25.509 E43.3245
G1 X100.346 Y25.94 E43.4424
G1 X102.815 Y26.295 E43.55855
G1 X105.377 Y26.589 E43.67863
G1 X107.861 Y26.804 E43.79472
G1 X110.401 Y26.952 E43.9132
G1 X112.909 Y27.026 E44.03003
G1 X115.455 Y27.03 E44.14858
G1 X117.966 Y26.962 E44.26555
G1 X120.508 Y26.822 E44.3841
G1 X123.02 Y26.612 E44.50147
G1 X125.539 Y26.329 E44.61951
G1 X128.031 Y25.978 E44.73669
G1 X130.541 Y25.551 E44.85524
G1 X133.011 Y25.06 E44.97251
G1 X135.429 Y24.506 E45.08802
G1 X137.95 Y23.855 E45.20926
G1 X140.358 Y23.159 E45.32597
G1 X142.75 Y22.393 E45.44293
G1 X145.158 Y21.547 E45.56177
G1 X147.487 Y20.653 E45.67793
G1 X149.848 Y19.669 E45.79704
G1 X152.149 Y18.635 E45.9145
G1 X154.424 Y17.533 E46.03221
G1 X156.67 Y16.366 E46.15007
G1 X158.847 Y15.153 E46.26611
G1 X160.631 Y14.087 E46.36288
G1 X161.35 Y13.667 E46.40166
G1 X162.02 Y13.308 E46.43705
G1 X162.26 Y13.19 E46.4495
G1 X163.456 Y12.69 E46.50987
G1 X163.712 Y12.601 E46.52249
G1 X164.717 Y12.306 E46.57126
G1 X164.921 Y12.257 E46.58103
G1 X165.399 Y12.154 E46.6038
G1 X165.498 Y12.135 E46.60849
G1 X166.167 Y12.029 E46.64003
G1 X166.61 Y11.973 E46.66082
G1 X166.938 Y11.936 E46.67619
G1 X167.191 Y11.912 E46.68803
G1 X168.032 Y11.866 E46.72724
G1 X168.788 Y11.856 E46.76245
G1 X211.41 Y11.856 E48.74711
G1 X212.266 Y11.867 E48.78697
G1 X212.918 Y11.896 E48.81736
G1 X213.208 Y11.918 E48.8309
G1 X214.03 Y12.013 E48.86943
G1 X214.533 Y12.091 E48.89314
G1 X215.583 Y12.309 E48.94307
G1 X215.817 Y12.37 E48.95433
G1 X216.826 Y12.688 E49.00359
G1 X216.996 Y12.751 E49.01203
G1 X218.091 Y13.228 E49.06765
G1 X218.396 Y13.382 E49.08356
G1 X219.199 Y13.832 E49.12642
G1 X219.595 Y14.09 E49.14843
G1 X220.049 Y14.4 E49.17403
G1 X220.864 Y15.016 E49.2216
G1 X221.124 Y15.233 E49.23737
G1 X221.805 Y15.853 E49.28025
G1 X222.186 Y16.252 E49.30594
G1 X222.312 Y16.391 E49.31468
G1 X222.997 Y17.229 E49.36507
G1 X223.15 Y17.437 E49.3771
G1 X223.353 Y17.723 E49.39343
G1 X223.556 Y18.019 E49.41014
G1 X224.092 Y18.888 E49.45768
G1 X224.25 Y19.174 E49.4729
G1 X224.801 Y20.331 E49.53257
G1 X224.887 Y20.544 E49.54327
G1 X225.272 Y21.678 E49.59903
G1 X225.34 Y21.923 E49.61087
G1 X225.542 Y22.791 E49.65237
G1 X225.603 Y23.114 E49.66767
G1 X225.736 Y24.046 E49.71151
G1 X225.782 Y24.515 E49.73345
G1 X225.825 Y25.145 E49.76286
G1 X225.839 Y25.588 E49.7835
G1 X225.845 Y26.099 E49.80729
G1 X225.844 Y72.107 E51.94962
