;FLAVOR:Marlin
;TIME:3501
;Filament used: 2.93098m
;Layer height: 0.28
;MINX:16.49
;MINY:103.167
;MINZ:0.28
;MAXX:116.404
;MAXY:201.129
;MAXZ:3.08
;Generated with Cura_SteamEngine 4.13.1
M140 S50
M105
M190 S50
M104 S200
M105
M109 S200
M82 ;absolute extrusion mode
; Ender 3 Custom Start G-code
G92 E0 ; Reset Extruder
G28 ; Home all axes
G1 Z2.0 F3000 ; Move Z Axis up little to prevent scratching of Heat Bed
G1 X0.1 Y20 Z0.3 F5000.0 ; Move to start position
G1 X0.1 Y200.0 Z0.3 F1500.0 E15 ; Draw the first line
G1 X0.4 Y200.0 Z0.3 F5000.0 ; Move to side a little
G1 X0.4 Y20 Z0.3 F1500.0 E30 ; Draw the second line
G92 E0 ; Reset Extruder
G1 Z2.0 F3000 ; Move Z Axis up little to prevent scratching of Heat Bed
G1 X5 Y20 Z0.3 F5000.0 ; Move over to prevent blob squish
G92 E0
G92 E0
G1 F2700 E-5
;LAYER_COUNT:11
;LAYER:0
M107
G0 F6000 X27.273 Y103.45 Z0.28
;TYPE:SKIRT
G1 F2700 E0
G1 F1200 X28.196 Y103.283 E0.04368
G1 X29.525 Y103.181 E0.10574
G1 X30.536 Y103.167 E0.15282
G1 X34.526 Y103.167 E0.33861
G1 X35.099 Y103.174 E0.3653
G1 X37.92 Y103.171 E0.49666
G1 X38.291 Y103.167 E0.51393
G1 X42.435 Y103.168 E0.70689
G1 X42.852 Y103.174 E0.72631
G1 X45.673 Y103.171 E0.85767
G1 X46.047 Y103.167 E0.87509
G1 X50.138 Y103.168 E1.06558
G1 X52.343 Y103.176 E1.16826
G1 X53.384 Y103.167 E1.21673
G1 X57.941 Y103.168 E1.42892
G1 X58.358 Y103.174 E1.44834
G1 X61.179 Y103.171 E1.5797
G1 X61.55 Y103.167 E1.59698
G1 X65.694 Y103.168 E1.78994
G1 X66.111 Y103.174 E1.80936
G1 X68.932 Y103.171 E1.94072
G1 X69.303 Y103.167 E1.95799
G1 X73.447 Y103.168 E2.15095
G1 X73.864 Y103.174 E2.17037
G1 X76.685 Y103.171 E2.30173
G1 X77.059 Y103.167 E2.31915
G1 X81.15 Y103.168 E2.50964
G1 X83.355 Y103.176 E2.61232
G1 X84.396 Y103.167 E2.66079
G1 X88.953 Y103.168 E2.87298
G1 X89.37 Y103.174 E2.8924
G1 X92.191 Y103.171 E3.02376
G1 X92.562 Y103.167 E3.04104
G1 X96.664 Y103.168 E3.23204
G1 X97.075 Y103.174 E3.25118
G1 X99.89 Y103.172 E3.38226
G1 X100.322 Y103.167 E3.40238
G1 X104.455 Y103.168 E3.59483
G1 X105.123 Y103.177 E3.62594
G1 X106.06 Y103.23 E3.66964
G1 X106.988 Y103.362 E3.71328
G1 X107.555 Y103.483 E3.74028
G1 X107.783 Y103.538 E3.7512
G1 X108.684 Y103.796 E3.79484
G1 X109.56 Y104.131 E3.83851
G1 X110.405 Y104.539 E3.88221
G1 X111.211 Y105.017 E3.92584
G1 X111.975 Y105.562 E3.96954
G1 X112.688 Y106.171 E4.0132
G1 X113.414 Y106.911 E4.06147
G1 X113.57 Y107.086 E4.07239
G1 X114.164 Y107.812 E4.11607
G1 X114.693 Y108.586 E4.15972
G1 X115.155 Y109.403 E4.20343
G1 X115.546 Y110.255 E4.24708
G1 X115.862 Y111.136 E4.29066
G1 X115.895 Y111.242 E4.29583
G1 X116.135 Y112.149 E4.33952
G1 X116.297 Y113.073 E4.3832
G1 X116.391 Y114.336 E4.44217
G1 X116.404 Y115.15 E4.48008
G1 X116.404 Y119.756 E4.69455
G1 X116.39 Y120.662 E4.73675
G1 X116.335 Y121.598 E4.78041
G1 X116.2 Y122.526 E4.82407
G1 X115.986 Y123.439 E4.86774
G1 X115.681 Y124.37 E4.91336
G1 X115.605 Y124.571 E4.92336
G1 X115.236 Y125.434 E4.96707
G1 X114.795 Y126.261 E5.01071
G1 X114.286 Y127.049 E5.05439
G1 X113.711 Y127.79 E5.09806
G1 X113.315 Y128.232 E5.1257
G1 X113.054 Y128.508 E5.14338
G1 X111.291 Y130.426 E5.26469
G1 X109.627 Y132.345 E5.38296
G1 X108.039 Y134.28 E5.49952
G1 X106.51 Y136.255 E5.61583
G1 X105.018 Y138.302 E5.73377
G1 X103.586 Y140.388 E5.85159
G1 X102.23 Y142.485 E5.96787
G1 X100.921 Y144.644 E6.08544
G1 X99.677 Y146.831 E6.2026
G1 X98.484 Y149.075 E6.32094
G1 X97.377 Y151.308 E6.43699
G1 X96.331 Y153.576 E6.55329
G1 X95.322 Y155.937 E6.67285
G1 X94.406 Y158.256 E6.78895
G1 X93.553 Y160.619 E6.90593
G1 X92.764 Y163.008 E7.02308
G1 X92.041 Y165.423 E7.14046
G1 X91.386 Y167.863 E7.2581
G1 X90.799 Y170.322 E7.37582
G1 X90.287 Y172.764 E7.492
G1 X89.84 Y175.27 E7.61053
G1 X89.474 Y177.703 E7.7251
G1 X89.167 Y180.231 E7.84368
G1 X88.932 Y182.754 E7.96167
G1 X88.773 Y185.211 E8.07632
G1 X88.747 Y186.089 E8.11722
G1 X88.719 Y186.471 E8.13505
G1 X88.673 Y187.596 E8.18748
G1 X88.596 Y188.519 E8.23061
G1 X88.533 Y189.019 E8.25407
G1 X88.364 Y189.997 E8.30029
G1 X88.311 Y190.239 E8.31183
G1 X88.143 Y190.908 E8.34394
G1 X87.98 Y191.439 E8.36981
G1 X87.889 Y191.711 E8.38316
G1 X87.404 Y192.918 E8.44373
G1 X87.353 Y193.026 E8.4493
G1 X86.952 Y193.795 E8.48968
G1 X86.747 Y194.153 E8.50889
G1 X86.194 Y195.022 E8.55685
G1 X86.051 Y195.225 E8.56841
G1 X85.444 Y196.008 E8.61455
G1 X85.169 Y196.332 E8.63434
G1 X84.533 Y197.021 E8.678
G1 X83.957 Y197.552 E8.71448
G1 X83.649 Y197.817 E8.7334
G1 X83 Y198.335 E8.77206
G1 X82.924 Y198.391 E8.77646
G1 X82.238 Y198.857 E8.81507
G1 X81.882 Y199.08 E8.83463
G1 X80.962 Y199.597 E8.88377
G1 X80.678 Y199.739 E8.89856
G1 X79.543 Y200.229 E8.95612
G1 X79.442 Y200.266 E8.96113
G1 X78.583 Y200.541 E9.00313
G1 X78.235 Y200.637 E9.01994
G1 X77.319 Y200.848 E9.06371
G1 X77.136 Y200.882 E9.07238
G1 X76.19 Y201.016 E9.11687
G1 X75.675 Y201.066 E9.14096
G1 X75.048 Y201.108 E9.17022
G1 X74.632 Y201.121 E9.1896
G1 X73.958 Y201.129 E9.22099
G1 X31.169 Y201.128 E11.21342
G1 X30.463 Y201.118 E11.2463
G1 X29.787 Y201.087 E11.27781
G1 X29.497 Y201.065 E11.29135
G1 X28.642 Y200.967 E11.33143
G1 X28.146 Y200.89 E11.3548
G1 X27.124 Y200.681 E11.40337
G1 X26.88 Y200.619 E11.4151
G1 X25.769 Y200.273 E11.46928
G1 X25.607 Y200.213 E11.47732
G1 X24.603 Y199.784 E11.52816
G1 X24.353 Y199.662 E11.54112
G1 X23.368 Y199.117 E11.59353
G1 X23.13 Y198.969 E11.60658
G1 X22.822 Y198.77 E11.62366
G1 X22.55 Y198.588 E11.6389
G1 X21.543 Y197.827 E11.69767
G1 X21.283 Y197.606 E11.71356
G1 X20.595 Y196.969 E11.75722
G1 X20.108 Y196.445 E11.79053
G1 X19.8 Y196.091 E11.81238
G1 X19.225 Y195.371 E11.85529
G1 X18.965 Y195.007 E11.87611
G1 X18.829 Y194.808 E11.88734
G1 X18.21 Y193.787 E11.94293
G1 X18.156 Y193.686 E11.94827
G1 X17.868 Y193.107 E11.97838
G1 X17.761 Y192.875 E11.99028
G1 X17.617 Y192.55 E12.00683
G1 X17.279 Y191.666 E12.0509
G1 X17.182 Y191.375 E12.06518
G1 X16.869 Y190.231 E12.12041
G1 X16.806 Y189.941 E12.13423
G1 X16.633 Y188.914 E12.18272
G1 X16.596 Y188.605 E12.19721
G1 X16.54 Y187.992 E12.22588
G1 X16.526 Y187.771 E12.23619
G1 X16.505 Y187.252 E12.26037
G1 X16.491 Y186.377 E12.30112
G1 X16.49 Y140.63 E14.43129
G1 X16.501 Y139.774 E14.47116
G1 X16.524 Y139.21 E14.49744
G1 X16.559 Y138.767 E14.51813
G1 X16.58 Y138.556 E14.52801
G1 X16.614 Y138.255 E14.54211
G1 X16.648 Y137.988 E14.55464
G1 X16.744 Y137.376 E14.58349
G1 X16.83 Y136.909 E14.6056
G1 X17.273 Y134.331 E14.7274
G1 X17.629 Y131.832 E14.84494
G1 X17.912 Y129.348 E14.96136
G1 X18.128 Y126.824 E15.07931
G1 X18.272 Y124.305 E15.1968
G1 X18.343 Y121.816 E15.31275
G1 X18.344 Y120.435 E15.37705
G1 X18.352 Y120.252 E15.38558
G1 X18.353 Y115.078 E15.6265
G1 X18.362 Y114.443 E15.65607
G1 X18.415 Y113.507 E15.69973
G1 X18.515 Y112.764 E15.73464
G1 X18.549 Y112.563 E15.74413
G1 X18.745 Y111.646 E15.78779
G1 X19.018 Y110.749 E15.83145
G1 X19.366 Y109.878 E15.87513
G1 X19.788 Y109.04 E15.91882
G1 X20.279 Y108.242 E15.96245
G1 X20.837 Y107.487 E16.00616
G1 X21.457 Y106.783 E16.04984
G1 X21.845 Y106.399 E16.07526
G1 X22.041 Y106.214 E16.08781
G1 X22.749 Y105.599 E16.13148
G1 X23.508 Y105.048 E16.17515
G1 X24.311 Y104.563 E16.21884
G1 X25.152 Y104.148 E16.2625
G1 X26.264 Y103.728 E16.31785
G1 X26.368 Y103.695 E16.32293
G1 X27.273 Y103.45 E16.36659
G0 F6000 X27.378 Y103.836
G1 F1200 X28.284 Y103.674 E16.40945
G1 X29.531 Y103.581 E16.46767
G1 X30.536 Y103.567 E16.51448
G1 X34.526 Y103.567 E16.70027
G1 X35.094 Y103.574 E16.72672
G1 X37.928 Y103.571 E16.85868
G1 X38.291 Y103.567 E16.87558
G1 X42.429 Y103.568 E17.06827
G1 X42.847 Y103.574 E17.08773
G1 X45.681 Y103.571 E17.2197
G1 X46.047 Y103.567 E17.23674
G1 X50.137 Y103.568 E17.42719
G1 X52.346 Y103.576 E17.53005
G1 X53.388 Y103.567 E17.57857
G1 X57.935 Y103.568 E17.7903
G1 X58.353 Y103.574 E17.80976
G1 X61.187 Y103.571 E17.94173
G1 X61.55 Y103.567 E17.95863
G1 X65.688 Y103.568 E18.15131
G1 X66.106 Y103.574 E18.17078
G1 X68.94 Y103.571 E18.30274
G1 X69.303 Y103.567 E18.31965
G1 X73.441 Y103.568 E18.51233
G1 X73.859 Y103.574 E18.53179
G1 X76.693 Y103.571 E18.66376
G1 X77.059 Y103.567 E18.6808
G1 X81.149 Y103.568 E18.87125
G1 X83.358 Y103.576 E18.97411
G1 X84.4 Y103.567 E19.02263
G1 X88.947 Y103.568 E19.23436
G1 X89.365 Y103.574 E19.25382
G1 X92.199 Y103.571 E19.38579
G1 X92.562 Y103.567 E19.40269
G1 X96.658 Y103.568 E19.59342
G1 X97.069 Y103.574 E19.61256
G1 X99.897 Y103.572 E19.74424
G1 X100.322 Y103.567 E19.76403
G1 X104.45 Y103.568 E19.95625
G1 X105.118 Y103.577 E19.98736
G1 X106.037 Y103.629 E20.03022
G1 X106.948 Y103.761 E20.07308
G1 X107.461 Y103.872 E20.09752
G1 X107.689 Y103.927 E20.10844
G1 X108.573 Y104.181 E20.15127
G1 X109.433 Y104.511 E20.19416
G1 X110.26 Y104.915 E20.23702
G1 X111.05 Y105.389 E20.27992
G1 X111.795 Y105.93 E20.32279
G1 X112.49 Y106.533 E20.36564
G1 X113.116 Y107.178 E20.40749
G1 X113.272 Y107.353 E20.41841
G1 X113.854 Y108.066 E20.46126
G1 X114.372 Y108.827 E20.50413
G1 X114.822 Y109.63 E20.54699
G1 X115.201 Y110.469 E20.58986
G1 X115.48 Y111.255 E20.6287
G1 X115.513 Y111.361 E20.63387
G1 X115.748 Y112.251 E20.67673
G1 X115.905 Y113.158 E20.71959
G1 X115.991 Y114.343 E20.77491
G1 X116.004 Y115.157 E20.81282
G1 X116.004 Y119.756 E21.02697
G1 X116.003 Y119.929 E21.03503
G1 X115.991 Y120.655 E21.06884
G1 X115.935 Y121.574 E21.11171
G1 X115.801 Y122.485 E21.15458
G1 X115.587 Y123.381 E21.19748
G1 X115.307 Y124.229 E21.23906
G1 X115.231 Y124.43 E21.24907
G1 X114.868 Y125.276 E21.29193
G1 X114.433 Y126.088 E21.33483
G1 X113.93 Y126.858 E21.37766
G1 X113.361 Y127.583 E21.42057
G1 X113.024 Y127.957 E21.44401
G1 X112.8 Y128.194 E21.4592
G1 X110.978 Y130.176 E21.58456
G1 X109.332 Y132.074 E21.70154
G1 X107.736 Y134.019 E21.8187
G1 X106.174 Y136.037 E21.93752
G1 X104.681 Y138.086 E22.05558
G1 X103.264 Y140.149 E22.17211
G1 X101.895 Y142.267 E22.28955
G1 X100.565 Y144.46 E22.40897
G1 X99.318 Y146.651 E22.52636
G1 X98.145 Y148.86 E22.64282
G1 X97.013 Y151.141 E22.7614
G1 X95.958 Y153.429 E22.87872
G1 X94.958 Y155.768 E22.99717
G1 X94.022 Y158.139 E23.11586
G1 X93.183 Y160.462 E23.23087
G1 X92.373 Y162.916 E23.3512
G1 X91.656 Y165.31 E23.46757
G1 X91.006 Y167.73 E23.58425
G1 X90.411 Y170.226 E23.70373
G1 X89.891 Y172.71 E23.8219
G1 X89.45 Y175.176 E23.93855
G1 X89.075 Y177.671 E24.05603
G1 X88.766 Y180.213 E24.17527
G1 X88.535 Y182.692 E24.2912
G1 X88.373 Y185.201 E24.40828
G1 X88.347 Y186.077 E24.44908
G1 X88.319 Y186.462 E24.46706
G1 X88.273 Y187.579 E24.51912
G1 X88.199 Y188.469 E24.5607
G1 X88.136 Y188.969 E24.58417
G1 X87.974 Y189.912 E24.62872
G1 X87.921 Y190.154 E24.64026
G1 X87.758 Y190.798 E24.67119
G1 X87.6 Y191.312 E24.69623
G1 X87.509 Y191.584 E24.70958
G1 X87.042 Y192.747 E24.76794
G1 X86.991 Y192.855 E24.7735
G1 X86.605 Y193.596 E24.81241
G1 X86.4 Y193.954 E24.83162
G1 X85.867 Y194.791 E24.87782
G1 X85.724 Y194.994 E24.88938
G1 X85.139 Y195.749 E24.93386
G1 X84.864 Y196.073 E24.95365
G1 X84.239 Y196.749 E24.99652
G1 X83.696 Y197.249 E25.03089
G1 X83.388 Y197.514 E25.04981
G1 X82.763 Y198.013 E25.08705
G1 X82.687 Y198.069 E25.09144
G1 X82.026 Y198.518 E25.12865
G1 X81.67 Y198.741 E25.14821
G1 X80.783 Y199.239 E25.19558
G1 X80.499 Y199.381 E25.21036
G1 X79.405 Y199.853 E25.26584
G1 X79.304 Y199.89 E25.27085
G1 X78.477 Y200.155 E25.31129
G1 X78.129 Y200.251 E25.3281
G1 X77.246 Y200.455 E25.3703
G1 X77.063 Y200.489 E25.37897
G1 X76.151 Y200.617 E25.42185
G1 X75.636 Y200.667 E25.44594
G1 X75.032 Y200.709 E25.47413
G1 X74.627 Y200.721 E25.493
G1 X73.958 Y200.729 E25.52415
G1 X31.175 Y200.728 E27.51631
G1 X30.469 Y200.718 E27.54919
G1 X29.817 Y200.689 E27.57958
G1 X29.527 Y200.667 E27.59312
G1 X28.703 Y200.572 E27.63174
G1 X28.207 Y200.495 E27.65512
G1 X27.223 Y200.294 E27.70188
G1 X26.979 Y200.232 E27.7136
G1 X25.907 Y199.898 E27.76589
G1 X25.745 Y199.838 E27.77393
G1 X24.778 Y199.424 E27.82291
G1 X24.528 Y199.302 E27.83587
G1 X23.579 Y198.778 E27.88634
G1 X23.341 Y198.63 E27.89939
G1 X23.044 Y198.438 E27.91586
G1 X22.772 Y198.256 E27.9311
G1 X21.802 Y197.523 E27.98771
G1 X21.542 Y197.302 E28.0036
G1 X20.867 Y196.675 E28.0465
G1 X20.41 Y196.183 E28.07777
G1 X20.102 Y195.829 E28.09962
G1 X19.547 Y195.134 E28.14103
G1 X19.296 Y194.781 E28.1612
G1 X19.16 Y194.582 E28.17243
G1 X18.563 Y193.599 E28.22598
G1 X18.509 Y193.498 E28.23131
G1 X18.231 Y192.939 E28.26038
G1 X18.124 Y192.707 E28.27228
G1 X17.985 Y192.392 E28.28831
G1 X17.659 Y191.539 E28.33083
G1 X17.562 Y191.248 E28.34512
G1 X17.26 Y190.146 E28.39832
G1 X17.197 Y189.856 E28.41214
G1 X17.03 Y188.866 E28.45889
G1 X16.993 Y188.557 E28.47338
G1 X16.939 Y187.967 E28.50097
G1 X16.925 Y187.746 E28.51128
G1 X16.905 Y187.246 E28.53458
G1 X16.891 Y186.371 E28.57533
G1 X16.89 Y140.63 E30.70522
G1 X16.901 Y139.78 E30.74481
G1 X16.923 Y139.236 E30.77016
G1 X16.957 Y138.806 E30.79024
G1 X16.978 Y138.595 E30.80012
G1 X17.011 Y138.306 E30.81366
G1 X17.045 Y138.039 E30.82619
G1 X17.137 Y137.449 E30.854
G1 X17.225 Y136.971 E30.87663
G1 X17.669 Y134.389 E30.99862
G1 X18.024 Y131.897 E31.11583
G1 X18.314 Y129.356 E31.23492
G1 X18.527 Y126.858 E31.35166
G1 X18.67 Y124.34 E31.4691
G1 X18.743 Y121.792 E31.58779
G1 X18.744 Y120.435 E31.65098
G1 X18.752 Y120.255 E31.65937
G1 X18.753 Y115.084 E31.90015
G1 X18.762 Y114.449 E31.92972
G1 X18.815 Y113.53 E31.97259
G1 X18.909 Y112.831 E32.00543
G1 X18.943 Y112.63 E32.01492
G1 X19.136 Y111.73 E32.05778
G1 X19.407 Y110.85 E32.10066
G1 X19.752 Y109.996 E32.14354
G1 X20.17 Y109.176 E32.1864
G1 X20.658 Y108.396 E32.22924
G1 X21.212 Y107.66 E32.27214
G1 X22.119 Y106.689 E32.33401
G1 X22.315 Y106.504 E32.34656
G1 X23.011 Y105.902 E32.38941
G1 X23.757 Y105.363 E32.43227
G1 X24.547 Y104.89 E32.47514
G1 X25.375 Y104.487 E32.51802
G1 X26.385 Y104.109 E32.56824
G1 X26.489 Y104.076 E32.57332
G1 X27.378 Y103.836 E32.61619
G0 F6000 X27.482 Y104.223
G1 F1200 X28.372 Y104.066 E32.65828
G1 X29.537 Y103.981 E32.71267
G1 X30.536 Y103.967 E32.75919
G1 X34.526 Y103.967 E32.94498
G1 X35.089 Y103.974 E32.9712
G1 X37.934 Y103.971 E33.10367
G1 X38.291 Y103.967 E33.1203
G1 X42.424 Y103.968 E33.31275
G1 X42.842 Y103.974 E33.33221
G1 X45.687 Y103.971 E33.46469
G1 X46.047 Y103.967 E33.48145
G1 X50.136 Y103.968 E33.67185
G1 X52.348 Y103.976 E33.77485
G1 X53.391 Y103.967 E33.82342
G1 X57.93 Y103.968 E34.03478
G1 X58.348 Y103.974 E34.05424
G1 X61.193 Y103.971 E34.18672
G1 X61.55 Y103.967 E34.20334
G1 X65.683 Y103.968 E34.39579
G1 X66.101 Y103.974 E34.41526
G1 X68.946 Y103.971 E34.54773
G1 X69.303 Y103.967 E34.56436
G1 X73.436 Y103.968 E34.75681
G1 X73.854 Y103.974 E34.77627
G1 X76.699 Y103.971 E34.90875
G1 X77.059 Y103.967 E34.92551
G1 X81.148 Y103.968 E35.11591
G1 X83.36 Y103.976 E35.21891
G1 X84.403 Y103.967 E35.26748
G1 X88.942 Y103.968 E35.47884
G1 X89.36 Y103.974 E35.4983
G1 X92.205 Y103.971 E35.63078
G1 X92.562 Y103.967 E35.6474
G1 X96.653 Y103.968 E35.8379
G1 X97.064 Y103.974 E35.85704
G1 X99.903 Y103.972 E35.98923
G1 X100.322 Y103.967 E36.00875
G1 X104.444 Y103.968 E36.20068
G1 X105.112 Y103.977 E36.23179
G1 X106.014 Y104.029 E36.27386
G1 X106.907 Y104.161 E36.31589
G1 X107.367 Y104.26 E36.3378
G1 X107.595 Y104.315 E36.34873
G1 X108.463 Y104.566 E36.3908
G1 X109.305 Y104.892 E36.43284
G1 X110.115 Y105.291 E36.47489
G1 X110.886 Y105.761 E36.51693
G1 X111.613 Y106.297 E36.55899
G1 X112.29 Y106.895 E36.60105
G1 X112.817 Y107.444 E36.63649
G1 X112.973 Y107.619 E36.6474
G1 X113.543 Y108.319 E36.68944
G1 X114.05 Y109.067 E36.73152
G1 X114.488 Y109.856 E36.77354
G1 X114.855 Y110.682 E36.81562
G1 X115.098 Y111.374 E36.84977
G1 X115.131 Y111.48 E36.85494
G1 X115.361 Y112.353 E36.89698
G1 X115.513 Y113.244 E36.93907
G1 X115.591 Y114.349 E36.99065
G1 X115.605 Y115.328 E37.03624
G1 X115.603 Y119.923 E37.25021
G1 X115.591 Y120.649 E37.28402
G1 X115.536 Y121.55 E37.32605
G1 X115.401 Y122.443 E37.3681
G1 X115.188 Y123.321 E37.41017
G1 X114.933 Y124.087 E37.44776
G1 X114.857 Y124.288 E37.45777
G1 X114.5 Y125.118 E37.49984
G1 X114.072 Y125.913 E37.54188
G1 X113.575 Y126.667 E37.58393
G1 X112.733 Y127.683 E37.64538
G1 X112.451 Y127.982 E37.66452
G1 X110.698 Y129.889 E37.78513
G1 X109.018 Y131.825 E37.90449
G1 X107.429 Y133.762 E38.02115
G1 X105.846 Y135.808 E38.14161
G1 X104.36 Y137.847 E38.25909
