;FLAVOR:Marlin
;TIME:12557
;Filament used: 12.0699m
;Layer height: 0.28
;MINX:8.907
;MINY:17.265
;MINZ:0.28
;MAXX:225.677
;MAXY:216.195
;MAXZ:3.08
;Generated with Cura_SteamEngine 4.13.1
M140 S50
M105
M190 S50
M104 S200
M105
M109 S200
M82 ;absolute extrusion mode
; Ender 3 Custom Start G-code
G92 E0 ; Reset Extruder
G28 ; Home all axes
G1 Z2.0 F3000 ; Move Z Axis up little to prevent scratching of Heat Bed
G1 X0.1 Y20 Z0.3 F5000.0 ; Move to start position
G1 X0.1 Y200.0 Z0.3 F1500.0 E15 ; Draw the first line
G1 X0.4 Y200.0 Z0.3 F5000.0 ; Move to side a little
G1 X0.4 Y20 Z0.3 F1500.0 E30 ; Draw the second line
G92 E0 ; Reset Extruder
G1 Z2.0 F3000 ; Move Z Axis up little to prevent scratching of Heat Bed
G1 X5 Y20 Z0.3 F5000.0 ; Move over to prevent blob squish
G92 E0
G92 E0
G1 F2700 E-5
;LAYER_COUNT:11
;LAYER:0
M107
G0 F6000 X14.742 Y19.972 Z0.28
;TYPE:SKIRT
G1 F2700 E0
G1 F1200 X15.047 Y19.755 E0.01743
G1 X15.197 Y19.652 E0.0259
G1 X16.092 Y19.099 E0.07489
G1 X16.424 Y18.915 E0.09257
G1 X17.656 Y18.329 E0.15609
G1 X17.895 Y18.233 E0.16808
G1 X19.173 Y17.808 E0.2308
G1 X19.433 Y17.739 E0.24332
G1 X20.436 Y17.522 E0.29111
G1 X20.77 Y17.466 E0.30688
G1 X21.498 Y17.369 E0.34108
G1 X21.829 Y17.336 E0.35657
G1 X22.421 Y17.293 E0.3842
G1 X22.685 Y17.281 E0.39651
G1 X23.05 Y17.271 E0.41351
G1 X23.593 Y17.265 E0.4388
G1 X66.278 Y17.265 E2.42639
G1 X67.134 Y17.276 E2.46625
G1 X67.926 Y17.316 E2.50318
G1 X68.203 Y17.34 E2.51612
G1 X68.617 Y17.384 E2.53551
G1 X68.873 Y17.416 E2.54752
G1 X69.531 Y17.518 E2.57853
G1 X69.932 Y17.593 E2.59753
G1 X71.293 Y17.939 E2.66292
G1 X71.556 Y18.024 E2.67579
G1 X72.435 Y18.35 E2.71944
G1 X72.988 Y18.601 E2.74772
G1 X73.253 Y18.73 E2.76144
G1 X73.963 Y19.108 E2.7989
G1 X74.886 Y19.646 E2.84864
G1 X75.742 Y20.161 E2.89516
G1 X77.938 Y21.401 E3.01259
G1 X80.188 Y22.588 E3.13104
G1 X82.391 Y23.673 E3.24539
G1 X84.72 Y24.738 E3.36464
G1 X87.021 Y25.712 E3.48099
G1 X89.359 Y26.625 E3.59786
G1 X91.753 Y27.483 E3.71628
G1 X94.161 Y28.269 E3.83423
G1 X96.513 Y28.965 E3.94844
G1 X99.006 Y29.626 E4.06854
G1 X101.448 Y30.201 E4.18536
G1 X103.909 Y30.704 E4.30232
G1 X106.382 Y31.14 E4.41925
G1 X108.846 Y31.502 E4.53522
G1 X111.396 Y31.804 E4.65478
G1 X113.879 Y32.027 E4.77087
G1 X116.377 Y32.18 E4.8874
G1 X118.899 Y32.263 E5.0049
G1 X121.427 Y32.274 E5.12262
G1 X123.944 Y32.216 E5.23985
G1 X126.431 Y32.086 E5.35581
G1 X128.988 Y31.88 E5.47526
G1 X131.454 Y31.612 E5.59077
G1 X133.96 Y31.267 E5.70856
G1 X136.416 Y30.857 E5.8245
G1 X138.935 Y30.365 E5.94401
G1 X141.33 Y29.824 E6.05834
G1 X143.823 Y29.189 E6.17814
G1 X146.219 Y28.504 E6.29417
G1 X148.599 Y27.751 E6.41041
G1 X151.034 Y26.904 E6.53046
G1 X153.342 Y26.027 E6.64543
G1 X155.677 Y25.063 E6.76305
G1 X157.965 Y24.043 E6.8797
G1 X161.199 Y22.467 E7.04722
G1 X161.302 Y22.415 E7.05259
G1 X162.227 Y21.997 E7.09986
G1 X162.499 Y21.889 E7.11348
G1 X163.384 Y21.581 E7.15712
G1 X163.85 Y21.452 E7.17963
G1 X164.161 Y21.373 E7.19457
G1 X165.472 Y21.123 E7.25672
G1 X166.011 Y21.054 E7.28202
G1 X166.622 Y20.993 E7.31062
G1 X166.943 Y20.97 E7.3256
G1 X167.582 Y20.943 E7.35538
G1 X168.179 Y20.936 E7.38318
G1 X211.001 Y20.937 E9.37715
G1 X211.699 Y20.947 E9.40966
G1 X212.491 Y20.987 E9.44659
G1 X212.768 Y21.011 E9.45953
G1 X213.182 Y21.055 E9.47892
G1 X213.438 Y21.087 E9.49093
G1 X214.096 Y21.189 E9.52194
G1 X214.497 Y21.264 E9.54093
G1 X215.858 Y21.61 E9.60632
G1 X216.121 Y21.695 E9.61919
G1 X217 Y22.021 E9.66285
G1 X217.538 Y22.264 E9.69033
G1 X217.804 Y22.393 E9.7041
G1 X218.82 Y22.954 E9.75814
G1 X218.995 Y23.063 E9.76774
G1 X219.804 Y23.619 E9.81345
G1 X220.26 Y23.963 E9.84005
G1 X220.515 Y24.161 E9.85508
G1 X220.646 Y24.266 E9.8629
G1 X221.352 Y24.883 E9.90656
G1 X222.256 Y25.854 E9.96833
G1 X222.387 Y26.013 E9.97793
G1 X222.627 Y26.315 E9.99589
G1 X222.811 Y26.555 E10.00997
G1 X223.234 Y27.146 E10.04381
G1 X223.45 Y27.47 E10.06195
G1 X224.087 Y28.557 E10.12061
G1 X224.233 Y28.842 E10.13552
G1 X224.625 Y29.694 E10.17919
G1 X224.898 Y30.438 E10.2161
G1 X224.984 Y30.701 E10.22898
G1 X225.263 Y31.715 E10.27795
G1 X225.317 Y31.956 E10.28945
G1 X225.495 Y32.973 E10.33753
G1 X225.56 Y33.484 E10.36151
G1 X225.615 Y34.026 E10.38688
G1 X225.638 Y34.324 E10.4008
G1 X225.67 Y35.03 E10.43371
G1 X225.677 Y35.643 E10.46225
G1 X225.676 Y81.592 E12.60183
G1 X225.666 Y82.29 E12.63433
G1 X225.626 Y83.082 E12.67126
G1 X225.602 Y83.359 E12.68421
G1 X225.56 Y83.761 E12.70303
G1 X225.532 Y83.987 E12.71363
G1 X225.422 Y84.688 E12.74667
G1 X225.335 Y85.146 E12.76838
G1 X225.121 Y86.059 E12.81205
G1 X224.972 Y86.545 E12.83571
G1 X224.894 Y86.781 E12.84729
G1 X224.562 Y87.658 E12.89095
G1 X224.339 Y88.147 E12.91598
G1 X224.205 Y88.422 E12.93022
G1 X223.677 Y89.38 E12.98116
G1 X223.597 Y89.509 E12.98823
G1 X222.222 Y91.796 E13.11248
G1 X220.984 Y93.994 E13.22995
G1 X219.819 Y96.205 E13.34632
G1 X218.689 Y98.506 E13.46569
G1 X217.66 Y100.759 E13.58102
G1 X216.68 Y103.079 E13.69829
G1 X215.764 Y105.428 E13.81569
G1 X214.917 Y107.796 E13.9328
G1 X214.133 Y110.2 E14.05054
G1 X213.417 Y112.629 E14.16846
G1 X212.782 Y115.031 E14.28415
G1 X212.203 Y117.499 E14.40219
G1 X211.696 Y119.978 E14.52001
G1 X211.268 Y122.424 E14.63564
G1 X210.9 Y124.935 E14.75381
G1 X210.608 Y127.419 E14.87027
G1 X210.383 Y129.947 E14.98845
G1 X210.231 Y132.463 E15.10582
G1 X210.149 Y134.958 E15.22206
G1 X210.14 Y137.477 E15.33936
G1 X210.201 Y139.999 E15.45682
G1 X210.335 Y142.53 E15.57484
G1 X210.535 Y145.002 E15.69033
G1 X210.81 Y147.515 E15.80804
G1 X211.261 Y150.662 E15.95608
G1 X211.406 Y151.784 E16.00876
G1 X211.476 Y152.511 E16.04276
G1 X211.491 Y152.752 E16.05401
G1 X211.511 Y153.288 E16.07898
G1 X211.518 Y153.885 E16.10678
G1 X211.517 Y199.83 E18.24618
G1 X211.508 Y200.472 E18.27607
G1 X211.499 Y200.79 E18.29089
G1 X211.488 Y201.046 E18.30282
G1 X211.45 Y201.603 E18.32881
G1 X211.419 Y201.933 E18.34425
G1 X211.297 Y202.829 E18.38635
G1 X211.257 Y203.054 E18.397
G1 X210.95 Y204.335 E18.45833
G1 X210.819 Y204.765 E18.47926
G1 X210.381 Y205.95 E18.53809
G1 X210.29 Y206.159 E18.54871
G1 X210.044 Y206.687 E18.57583
G1 X209.936 Y206.903 E18.58707
G1 X209.284 Y208.034 E18.64786
G1 X209.23 Y208.116 E18.65243
G1 X208.945 Y208.528 E18.67576
G1 X208.794 Y208.736 E18.68773
G1 X208.378 Y209.274 E18.7194
G1 X208.199 Y209.491 E18.7325
G1 X207.571 Y210.188 E18.77618
G1 X207.174 Y210.574 E18.80197
G1 X206.849 Y210.874 E18.82256
G1 X206.133 Y211.48 E18.86624
G1 X205.749 Y211.765 E18.88851
G1 X205.591 Y211.877 E18.89752
G1 X205.332 Y212.056 E18.91218
G1 X205.089 Y212.218 E18.92578
G1 X204.205 Y212.749 E18.9738
G1 X203.832 Y212.95 E18.99353
G1 X202.988 Y213.359 E19.0372
G1 X202.35 Y213.612 E19.06916
G1 X202.098 Y213.703 E19.08164
G1 X200.867 Y214.068 E19.14142
G1 X200.572 Y214.137 E19.15553
G1 X199.763 Y214.294 E19.1939
G1 X199.59 Y214.321 E19.20206
G1 X198.946 Y214.403 E19.23229
G1 X198.467 Y214.449 E19.25469
G1 X197.84 Y214.491 E19.28396
G1 X197.685 Y214.497 E19.29118
G1 X197.399 Y214.504 E19.3045
G1 X196.785 Y214.511 E19.33309
G1 X153.999 Y214.51 E21.32539
G1 X153.258 Y214.5 E21.35989
G1 X152.607 Y214.472 E21.39024
G1 X152.291 Y214.449 E21.40499
G1 X151.71 Y214.391 E21.43218
G1 X151.457 Y214.359 E21.44405
G1 X150.26 Y214.14 E21.50071
G1 X150.011 Y214.08 E21.51264
G1 X149.171 Y213.842 E21.55329
G1 X148.712 Y213.692 E21.57578
G1 X148.036 Y213.446 E21.60928
G1 X146.766 Y212.936 E21.673
G1 X146.674 Y212.898 E21.67764
G1 X144.313 Y211.991 E21.79541
G1 X141.934 Y211.153 E21.91286
G1 X139.56 Y210.392 E22.02894
G1 X137.155 Y209.696 E22.14552
G1 X134.701 Y209.06 E22.26357
G1 X132.202 Y208.485 E22.38297
G1 X129.805 Y208.009 E22.49677
G1 X127.305 Y207.584 E22.61485
G1 X124.794 Y207.229 E22.73293
G1 X122.283 Y206.945 E22.8506
G1 X119.802 Y206.737 E22.96653
G1 X117.286 Y206.597 E23.08387
G1 X114.761 Y206.528 E23.20149
G1 X112.238 Y206.53 E23.31897
G1 X109.752 Y206.603 E23.43478
G1 X107.22 Y206.749 E23.55287
G1 X104.684 Y206.967 E23.67139
G1 X102.211 Y207.25 E23.7873
G1 X99.723 Y207.607 E23.90434
G1 X97.244 Y208.034 E24.02147
G1 X94.78 Y208.531 E24.13851
G1 X92.323 Y209.098 E24.25593
G1 X89.887 Y209.735 E24.37317
G1 X87.471 Y210.439 E24.49035
G1 X85.074 Y211.214 E24.60766
G1 X82.688 Y212.058 E24.7255
G1 X80.352 Y212.961 E24.84212
G1 X78.033 Y213.934 E24.95922
G1 X75.893 Y214.902 E25.06859
G1 X75.641 Y215.012 E25.08139
G1 X75.038 Y215.254 E25.11165
G1 X74.781 Y215.348 E25.12439
G1 X74.329 Y215.502 E25.14663
G1 X74.162 Y215.555 E25.15479
G1 X73.514 Y215.739 E25.18615
G1 X73.279 Y215.798 E25.19743
G1 X72.36 Y215.987 E25.24112
G1 X71.522 Y216.09 E25.28044
G1 X70.868 Y216.145 E25.311
G1 X70.115 Y216.183 E25.3461
G1 X69.229 Y216.195 E25.38736
G1 X26.587 Y216.194 E27.37295
G1 X25.832 Y216.183 E27.40811
G1 X25.26 Y216.16 E27.43477
G1 X25.005 Y216.143 E27.44667
G1 X24.424 Y216.088 E27.47385
G1 X24.216 Y216.063 E27.4836
G1 X23.153 Y215.882 E27.53381
G1 X22.71 Y215.784 E27.55494
G1 X21.607 Y215.48 E27.60821
G1 X21.34 Y215.391 E27.62132
G1 X20.049 Y214.867 E27.68619
G1 X19.862 Y214.777 E27.69586
G1 X19.147 Y214.4 E27.7335
G1 X18.961 Y214.293 E27.74349
G1 X18.503 Y214.014 E27.76846
G1 X18.313 Y213.892 E27.77897
G1 X17.373 Y213.217 E27.83286
G1 X17.095 Y212.994 E27.84946
G1 X16.809 Y212.756 E27.86678
G1 X16.674 Y212.64 E27.87507
G1 X15.727 Y211.722 E27.93648
G1 X15.566 Y211.546 E27.94759
G1 X14.921 Y210.772 E27.9945
G1 X14.713 Y210.498 E28.01052
G1 X14.14 Y209.668 E28.05749
G1 X13.971 Y209.397 E28.07236
G1 X13.472 Y208.506 E28.11991
G1 X13.292 Y208.147 E28.13861
G1 X12.908 Y207.292 E28.18225
G1 X12.593 Y206.39 E28.22674
G1 X12.496 Y206.068 E28.2424
G1 X12.3 Y205.324 E28.27823
G1 X12.252 Y205.112 E28.28835
G1 X12.116 Y204.407 E28.32178
G1 X12.106 Y204.344 E28.32475
G1 X12.022 Y203.691 E28.35541
G1 X11.995 Y203.415 E28.36832
G1 X11.968 Y203.084 E28.38379
G1 X11.945 Y202.743 E28.3997
G1 X11.925 Y202.341 E28.41844
G1 X11.916 Y201.972 E28.43563
G1 X11.913 Y201.639 E28.45114
G1 X11.914 Y155.538 E30.59779
G1 X11.924 Y154.841 E30.63025
G1 X11.963 Y154.056 E30.66685
G1 X11.987 Y153.777 E30.67989
G1 X12.033 Y153.35 E30.69989
G1 X12.065 Y153.095 E30.71185
G1 X12.167 Y152.441 E30.74267
G1 X12.237 Y152.067 E30.76039
G1 X12.529 Y150.877 E30.81745
G1 X12.595 Y150.661 E30.82796
G1 X12.717 Y150.286 E30.84633
G1 X12.976 Y149.536 E30.88327
G1 X13.777 Y147.098 E31.00277
G1 X14.503 Y144.66 E31.12122
G1 X15.15 Y142.238 E31.23795
G1 X15.724 Y139.815 E31.3539
G1 X16.25 Y137.286 E31.47418
G1 X16.678 Y134.869 E31.58847
G1 X17.05 Y132.37 E31.70612
G1 X17.354 Y129.841 E31.82473
G1 X17.581 Y127.36 E31.94074
G1 X17.742 Y124.826 E32.05897
G1 X17.828 Y122.349 E32.17438
G1 X17.844 Y119.79 E32.29354
G1 X17.789 Y117.292 E32.40988
G1 X17.664 Y114.787 E32.52667
G1 X17.468 Y112.29 E32.6433
G1 X17.197 Y109.759 E32.76183
G1 X16.857 Y107.259 E32.87931
G1 X16.453 Y104.801 E32.9953
G1 X15.97 Y102.315 E33.11322
G1 X15.421 Y99.856 E33.23054
G1 X14.807 Y97.43 E33.34707
G1 X14.119 Y95.005 E33.46445
G1 X13.362 Y92.597 E33.58198
G1 X12.537 Y90.215 E33.69936
G1 X11.668 Y87.911 E33.81402
G1 X10.295 Y84.612 E33.98041
G1 X10.072 Y84.106 E34.00616
G1 X9.679 Y83.075 E34.05754
G1 X9.588 Y82.795 E34.07125
G1 X9.281 Y81.642 E34.1268
G1 X9.228 Y81.388 E34.13889
G1 X9.083 Y80.521 E34.17982
G1 X9.027 Y80.078 E34.20061
G1 X8.989 Y79.737 E34.21659
G1 X8.965 Y79.484 E34.22842
G1 X8.929 Y78.985 E34.25172
G1 X8.915 Y78.545 E34.27222
G1 X8.907 Y77.849 E34.30463
G1 X8.908 Y31.902 E36.44411
G1 X8.918 Y31.227 E36.47555
G1 X8.95 Y30.535 E36.5078
G1 X8.973 Y30.24 E36.52158
G1 X9.068 Y29.422 E36.55993
G1 X9.136 Y28.98 E36.58075
G1 X9.317 Y28.066 E36.62414
G1 X9.385 Y27.785 E36.6376
G1 X9.738 Y26.613 E36.69459
G1 X9.802 Y26.437 E36.70331
G1 X10.335 Y25.211 E36.76556
G1 X10.486 Y24.914 E36.78108
G1 X10.979 Y24.044 E36.82764
G1 X11.084 Y23.877 E36.83683
G1 X11.337 Y23.492 E36.85828
G1 X11.565 Y23.161 E36.87699
G1 X12.291 Y22.22 E36.93233
G1 X12.478 Y22.003 E36.94567
G1 X13.12 Y21.319 E36.98935
G1 X13.519 Y20.949 E37.01469
G1 X13.65 Y20.833 E37.02284
G1 X14.41 Y20.217 E37.06839
G1 X14.742 Y19.972 E37.08761
G0 F6000 X14.98 Y20.294
G1 F1200 X15.274 Y20.085 E37.1044
G1 X15.424 Y19.982 E37.11288
G1 X16.286 Y19.449 E37.16007
G1 X16.618 Y19.265 E37.17774
G1 X17.805 Y18.7 E37.23896
G1 X18.044 Y18.604 E37.25095
G1 X19.276 Y18.195 E37.31139
G1 X19.536 Y18.126 E37.32392
G1 X20.502 Y17.917 E37.36994
G1 X20.836 Y17.861 E37.38571
G1 X21.537 Y17.767 E37.41865
G1 X21.868 Y17.734 E37.43413
G1 X22.439 Y17.693 E37.46079
G1 X22.703 Y17.681 E37.4731
G1 X23.054 Y17.671 E37.48945
G1 X23.593 Y17.665 E37.51455
G1 X66.278 Y17.665 E39.50214
G1 X67.128 Y17.676 E39.54172
G1 X67.891 Y17.715 E39.5773
G1 X68.168 Y17.739 E39.59024
G1 X68.568 Y17.781 E39.60897
G1 X68.824 Y17.813 E39.62099
G1 X69.458 Y17.912 E39.65086
G1 X69.859 Y17.987 E39.66986
G1 X71.17 Y18.32 E39.73284
G1 X71.433 Y18.405 E39.74571
G1 X72.296 Y18.726 E39.78859
G1 X72.812 Y18.96 E39.81497
G1 X73.077 Y19.089 E39.8287
G1 X73.762 Y19.454 E39.86484
G1 X74.679 Y19.988 E39.91425
G1 X75.556 Y20.516 E39.96192
G1 X77.749 Y21.754 E40.07918
G1 X79.96 Y22.92 E40.19557
G1 X82.255 Y24.051 E40.31471
G1 X84.547 Y25.099 E40.43206
G1 X86.868 Y26.081 E40.54941
G1 X89.246 Y27.01 E40.66829
G1 X91.631 Y27.864 E40.78625
G1 X93.996 Y28.637 E40.90211
G1 X96.444 Y29.361 E41.02098
G1 X98.883 Y30.008 E41.13848
G1 X101.373 Y30.594 E41.25759
G1 X103.831 Y31.097 E41.37442
G1 X106.326 Y31.537 E41.49239
G1 X108.817 Y31.903 E41.60962
G1 X111.308 Y32.198 E41.72643
G1 X113.858 Y32.426 E41.84564
G1 X116.373 Y32.58 E41.96297
G1 X118.884 Y32.663 E42.07995
G1 X121.435 Y32.674 E42.19874
G1 X123.939 Y32.616 E42.31537
G1 X126.483 Y32.483 E42.43399
G1 X128.991 Y32.282 E42.55115
G1 X131.52 Y32.006 E42.66961
G1 X134.009 Y31.663 E42.7866
G1 X136.522 Y31.245 E42.90522
G1 X138.995 Y30.761 E43.02256
G1 X141.445 Y30.208 E43.13951
G1 X143.885 Y29.586 E43.25676
G1 X146.354 Y28.88 E43.37634
G1 X148.746 Y28.124 E43.49315
G1 X151.16 Y27.285 E43.61215
G1 X153.501 Y26.395 E43.72877
G1 X155.813 Y25.44 E43.84525
G1 X158.149 Y24.399 E43.96433
G1 X161.376 Y22.826 E44.1315
G1 X161.483 Y22.772 E44.13708
G1 X162.374 Y22.369 E44.18261
G1 X162.646 Y22.261 E44.19624
G1 X163.948 Y21.839 E44.25997
G1 X164.259 Y21.76 E44.27491
G1 X165.523 Y21.52 E44.33482
G1 X166.062 Y21.451 E44.36013
G1 X166.65 Y21.392 E44.38764
G1 X166.971 Y21.369 E44.40263
G1 X167.588 Y21.343 E44.43138
G1 X168.179 Y21.336 E44.45891
G1 X210.995 Y21.337 E46.4526
G1 X211.693 Y21.347 E46.4851
G1 X212.456 Y21.386 E46.52068
G1 X212.733 Y21.41 E46.53363
G1 X213.133 Y21.452 E46.55235
G1 X213.389 Y21.484 E46.56437
G1 X214.023 Y21.583 E46.59425
G1 X214.424 Y21.658 E46.61324
G1 X215.735 Y21.991 E46.67623
G1 X215.998 Y22.076 E46.6891
G1 X216.861 Y22.397 E46.73197
G1 X217.363 Y22.624 E46.75762
G1 X217.629 Y22.753 E46.77139
G1 X218.608 Y23.294 E46.82347
G1 X218.783 Y23.403 E46.83307
G1 X219.563 Y23.938 E46.87712
G1 X220.019 Y24.282 E46.90371
G1 X220.264 Y24.473 E46.91818
G1 X220.395 Y24.578 E46.926
G1 X221.088 Y25.184 E46.96886
G1 X221.947 Y26.109 E47.02764
G1 X222.078 Y26.268 E47.03724
G1 X222.309 Y26.559 E47.05454
G1 X222.493 Y26.799 E47.06862
G1 X222.901 Y27.368 E47.10122
G1 X223.117 Y27.692 E47.11935
G1 X223.731 Y28.739 E47.17587
G1 X223.877 Y29.024 E47.19078
G1 X224.261 Y29.861 E47.23366
G1 X224.518 Y30.563 E47.26847
G1 X224.604 Y30.826 E47.28136
G1 X224.873 Y31.802 E47.3285
G1 X224.927 Y32.043 E47.34
G1 X225.098 Y33.023 E47.38632
G1 X225.163 Y33.534 E47.41031
G1 X225.217 Y34.056 E47.43474
G1 X225.24 Y34.354 E47.44866
G1 X225.27 Y35.036 E47.48045
G1 X225.277 Y35.643 E47.50871
G1 X225.276 Y81.586 E49.64801
G1 X225.266 Y82.284 E49.68052
G1 X225.227 Y83.047 E49.71609
G1 X225.203 Y83.324 E49.72904
G1 X225.163 Y83.712 E49.7472
G1 X225.135 Y83.938 E49.75781
G1 X225.029 Y84.613 E49.78962
G1 X224.942 Y85.071 E49.81133
G1 X224.731 Y85.967 E49.85419
G1 X224.593 Y86.419 E49.8762
G1 X224.515 Y86.655 E49.88777
G1 X224.188 Y87.516 E49.93066
G1 X223.979 Y87.972 E49.95401
G1 X223.845 Y88.247 E49.96826
G1 X223.337 Y89.17 E50.01732
G1 X223.218 Y89.363 E50.02788
G1 X221.873 Y91.599 E50.14938
G1 X220.631 Y93.805 E50.26726
G1 X219.464 Y96.02 E50.38384
G1 X218.344 Y98.3 E50.50212
