;FLAVOR:Marlin
;TIME:12283
;Filament used: 11.5499m
;Layer height: 0.28
;MINX:13.408
;MINY:14.918
;MINZ:0.28
;MAXX:223.45
;MAXY:213.83
;MAXZ:3.08
;Generated with Cura_SteamEngine 4.13.1
M140 S50
M105
M190 S50
M104 S200
M105
M109 S200
M82 ;absolute extrusion mode
; Ender 3 Custom Start G-code
G92 E0 ; Reset Extruder
G28 ; Home all axes
G1 Z2.0 F3000 ; Move Z Axis up little to prevent scratching of Heat Bed
G1 X0.1 Y20 Z0.3 F5000.0 ; Move to start position
G1 X0.1 Y200.0 Z0.3 F1500.0 E15 ; Draw the first line
G1 X0.4 Y200.0 Z0.3 F5000.0 ; Move to side a little
G1 X0.4 Y20 Z0.3 F1500.0 E30 ; Draw the second line
G92 E0 ; Reset Extruder
G1 Z2.0 F3000 ; Move Z Axis up little to prevent scratching of Heat Bed
G1 X5 Y20 Z0.3 F5000.0 ; Move over to prevent blob squish
G92 E0
G92 E0
G1 F2700 E-5
;LAYER_COUNT:11
;LAYER:0
M107
G0 F6000 X19.086 Y25.868 Z0.28
;TYPE:SKIRT
G1 F2700 E0
G1 F1200 X19.606 Y25.497 E0.02974
G1 X19.91 Y25.293 E0.04679
G1 X21.066 Y24.615 E0.10919
G1 X21.36 Y24.466 E0.12454
G1 X22.214 Y24.078 E0.16822
G1 X22.922 Y23.82 E0.20331
G1 X23.201 Y23.729 E0.21697
G1 X24.263 Y23.441 E0.26821
G1 X24.478 Y23.394 E0.27846
G1 X25.436 Y23.228 E0.32373
G1 X25.946 Y23.163 E0.34767
G1 X26.31 Y23.123 E0.36472
G1 X26.534 Y23.102 E0.3752
G1 X27.395 Y23.055 E0.41535
G1 X28.157 Y23.045 E0.45084
G1 X70.938 Y23.046 E2.4429
G1 X71.636 Y23.056 E2.4754
G1 X72.2 Y23.079 E2.50169
G1 X72.638 Y23.114 E2.52215
G1 X73.13 Y23.166 E2.54518
G1 X73.386 Y23.198 E2.5572
G1 X74.073 Y23.306 E2.58958
G1 X74.463 Y23.38 E2.60806
G1 X75.795 Y23.72 E2.67208
G1 X76.058 Y23.805 E2.68495
G1 X76.522 Y23.967 E2.70783
G1 X77.836 Y24.457 E2.77313
G1 X77.949 Y24.494 E2.77867
G1 X78.281 Y24.621 E2.79522
G1 X80.619 Y25.443 E2.91062
G1 X83.032 Y26.215 E3.02859
G1 X85.464 Y26.919 E3.14648
G1 X87.908 Y27.552 E3.26404
G1 X90.371 Y28.116 E3.3817
G1 X92.814 Y28.601 E3.49767
G1 X95.283 Y29.021 E3.61429
G1 X97.77 Y29.372 E3.73125
G1 X100.291 Y29.654 E3.84937
G1 X102.816 Y29.865 E3.96735
G1 X105.312 Y30.004 E4.08375
G1 X107.826 Y30.072 E4.20086
G1 X110.349 Y30.068 E4.31834
G1 X112.847 Y29.994 E4.43471
G1 X115.383 Y29.848 E4.55299
G1 X117.88 Y29.631 E4.6697
G1 X120.399 Y29.342 E4.78777
G1 X122.862 Y28.988 E4.90363
G1 X125.367 Y28.555 E5.022
G1 X127.801 Y28.063 E5.13763
G1 X130.264 Y27.494 E5.25534
G1 X132.701 Y26.856 E5.37264
G1 X135.127 Y26.147 E5.49033
G1 X137.511 Y25.378 E5.60697
G1 X139.901 Y24.53 E5.72506
G1 X142.245 Y23.623 E5.84209
G1 X144.566 Y22.649 E5.9593
G1 X146.866 Y21.607 E6.07688
G1 X149.116 Y20.509 E6.19345
G1 X151.339 Y19.345 E6.3103
G1 X153.541 Y18.113 E6.42779
G1 X155.139 Y17.154 E6.51457
G1 X155.738 Y16.804 E6.54687
G1 X156.316 Y16.489 E6.57753
G1 X156.543 Y16.374 E6.58938
G1 X157.777 Y15.841 E6.65197
G1 X158.112 Y15.72 E6.66855
G1 X159.007 Y15.439 E6.71223
G1 X159.463 Y15.328 E6.73409
G1 X159.706 Y15.274 E6.74568
G1 X160.701 Y15.1 E6.79271
G1 X161.211 Y15.035 E6.81665
G1 X161.816 Y14.975 E6.84496
G1 X162.137 Y14.952 E6.85995
G1 X162.776 Y14.925 E6.88973
G1 X163.373 Y14.918 E6.91753
G1 X206.195 Y14.919 E8.9115
G1 X206.893 Y14.929 E8.944
G1 X207.685 Y14.969 E8.98093
G1 X207.962 Y14.993 E8.99388
G1 X208.376 Y15.037 E9.01326
G1 X208.632 Y15.069 E9.02528
G1 X209.292 Y15.172 E9.05638
G1 X209.666 Y15.242 E9.0741
G1 X210.874 Y15.539 E9.13202
G1 X211.092 Y15.606 E9.14264
G1 X212.366 Y16.086 E9.20604
G1 X212.68 Y16.227 E9.22206
G1 X213.518 Y16.648 E9.26573
G1 X213.962 Y16.908 E9.28969
G1 X214.185 Y17.046 E9.3019
G1 X215.026 Y17.622 E9.34937
G1 X215.463 Y17.952 E9.37487
G1 X215.714 Y18.147 E9.38967
G1 X215.84 Y18.248 E9.39718
G1 X216.546 Y18.865 E9.44084
G1 X217.45 Y19.836 E9.50262
G1 X217.581 Y19.995 E9.51221
G1 X217.821 Y20.297 E9.53017
G1 X218.005 Y20.537 E9.54426
G1 X218.428 Y21.128 E9.5781
G1 X218.644 Y21.452 E9.59623
G1 X219.281 Y22.539 E9.6549
G1 X219.427 Y22.824 E9.66981
G1 X219.819 Y23.676 E9.71348
G1 X220.092 Y24.42 E9.75038
G1 X220.178 Y24.683 E9.76326
G1 X220.457 Y25.697 E9.81224
G1 X220.511 Y25.938 E9.82374
G1 X220.689 Y26.955 E9.87181
G1 X220.754 Y27.466 E9.8958
G1 X220.813 Y28.058 E9.9235
G1 X220.836 Y28.375 E9.9383
G1 X220.864 Y29.026 E9.96864
G1 X220.871 Y29.625 E9.99653
G1 X220.87 Y75.575 E12.13616
G1 X220.86 Y76.273 E12.16866
G1 X220.82 Y77.065 E12.20559
G1 X220.796 Y77.342 E12.21854
G1 X220.752 Y77.756 E12.23792
G1 X220.72 Y78.012 E12.24994
G1 X220.617 Y78.672 E12.28104
G1 X220.547 Y79.046 E12.29876
G1 X220.24 Y80.284 E12.35815
G1 X219.913 Y81.337 E12.40949
G1 X219.846 Y81.547 E12.41976
G1 X219.748 Y81.842 E12.43423
G1 X219.019 Y84.264 E12.55201
G1 X218.364 Y86.687 E12.66888
G1 X217.778 Y89.124 E12.78559
G1 X217.253 Y91.621 E12.90441
G1 X216.81 Y94.073 E13.02043
G1 X216.432 Y96.563 E13.1377
G1 X216.126 Y99.044 E13.2541
G1 X215.886 Y101.573 E13.37239
G1 X215.721 Y104.071 E13.48897
G1 X215.625 Y106.604 E13.607
G1 X215.602 Y109.093 E13.7229
G1 X215.649 Y111.617 E13.84045
G1 X215.769 Y114.159 E13.95895
G1 X215.957 Y116.637 E14.07466
G1 X216.219 Y119.161 E14.19282
G1 X216.545 Y121.619 E14.30828
G1 X216.955 Y124.151 E14.42772
G1 X217.422 Y126.598 E14.54372
G1 X217.967 Y129.078 E14.66195
G1 X218.564 Y131.47 E14.77675
G1 X219.258 Y133.943 E14.89635
G1 X219.998 Y136.319 E15.01223
G1 X220.811 Y138.693 E15.12907
G1 X222.159 Y142.225 E15.30511
G1 X222.48 Y143.017 E15.3449
G1 X222.796 Y143.901 E15.38862
G1 X222.95 Y144.449 E15.41512
G1 X223.004 Y144.662 E15.42535
G1 X223.178 Y145.476 E15.46411
G1 X223.235 Y145.803 E15.47957
G1 X223.347 Y146.634 E15.51861
G1 X223.384 Y147.017 E15.53653
G1 X223.425 Y147.595 E15.56351
G1 X223.435 Y147.824 E15.57419
G1 X223.444 Y148.159 E15.58979
G1 X223.45 Y148.683 E15.61419
G1 X223.449 Y194.684 E17.75619
G1 X223.439 Y195.382 E17.7887
G1 X223.399 Y196.174 E17.82562
G1 X223.375 Y196.451 E17.83857
G1 X223.331 Y196.865 E17.85796
G1 X223.299 Y197.121 E17.86997
G1 X223.197 Y197.779 E17.90097
G1 X223.122 Y198.18 E17.91997
G1 X222.776 Y199.541 E17.98536
G1 X222.691 Y199.804 E17.99823
G1 X222.365 Y200.683 E18.04188
G1 X222.121 Y201.223 E18.06948
G1 X221.99 Y201.493 E18.08345
G1 X221.406 Y202.545 E18.13948
G1 X221.296 Y202.72 E18.1491
G1 X220.758 Y203.499 E18.19319
G1 X220.408 Y203.962 E18.22021
G1 X220.223 Y204.201 E18.23429
G1 X220.127 Y204.321 E18.24144
G1 X219.51 Y205.027 E18.2851
G1 X218.532 Y205.939 E18.34737
G1 X218.373 Y206.07 E18.35696
G1 X218.071 Y206.31 E18.37492
G1 X217.831 Y206.494 E18.38901
G1 X217.252 Y206.908 E18.42215
G1 X216.908 Y207.138 E18.44142
G1 X215.713 Y207.833 E18.50579
G1 X215.447 Y207.966 E18.51964
G1 X214.591 Y208.349 E18.5633
G1 X213.951 Y208.581 E18.595
G1 X213.67 Y208.673 E18.60877
G1 X212.596 Y208.965 E18.6606
G1 X212.381 Y209.012 E18.67084
G1 X211.423 Y209.178 E18.71612
G1 X210.913 Y209.243 E18.74006
G1 X210.549 Y209.283 E18.75711
G1 X210.325 Y209.304 E18.76758
G1 X209.464 Y209.351 E18.80773
G1 X208.702 Y209.361 E18.84322
G1 X165.921 Y209.36 E20.83528
G1 X165.223 Y209.35 E20.86779
G1 X164.659 Y209.327 E20.89407
G1 X164.221 Y209.292 E20.91453
G1 X163.729 Y209.24 E20.93757
G1 X163.473 Y209.208 E20.94958
G1 X162.786 Y209.1 E20.98196
G1 X162.396 Y209.026 E21.00045
G1 X161.076 Y208.69 E21.06387
G1 X160.812 Y208.605 E21.07679
G1 X159.76 Y208.206 E21.12918
G1 X158.837 Y207.8 E21.17613
G1 X156.478 Y206.805 E21.29535
G1 X154.108 Y205.882 E21.41378
G1 X151.789 Y205.054 E21.52844
G1 X149.349 Y204.261 E21.6479
G1 X146.954 Y203.555 E21.76417
G1 X144.503 Y202.908 E21.88221
G1 X142.02 Y202.326 E22.00096
G1 X139.616 Y201.836 E22.1152
G1 X137.105 Y201.397 E22.2339
G1 X134.619 Y201.034 E22.35088
G1 X132.142 Y200.744 E22.46701
G1 X129.602 Y200.519 E22.58575
G1 X127.104 Y200.369 E22.70227
G1 X124.607 Y200.29 E22.8186
G1 X122.083 Y200.281 E22.93613
G1 X119.561 Y200.343 E23.0536
G1 X117.026 Y200.478 E23.17181
G1 X114.542 Y200.679 E23.28785
G1 X112.042 Y200.955 E23.40497
G1 X109.521 Y201.305 E23.52349
G1 X107.038 Y201.721 E23.64072
G1 X104.615 Y202.198 E23.75571
G1 X102.142 Y202.759 E23.87379
G1 X99.698 Y203.384 E23.99125
G1 X97.264 Y204.083 E24.10917
G1 X94.866 Y204.844 E24.22632
G1 X92.492 Y205.674 E24.34342
G1 X90.159 Y206.563 E24.45968
G1 X87.801 Y207.539 E24.57851
G1 X85.532 Y208.554 E24.69425
G1 X83.262 Y209.648 E24.81159
G1 X81.01 Y210.812 E24.92963
G1 X79.343 Y211.727 E25.01818
G1 X78.939 Y211.953 E25.03973
G1 X78.356 Y212.257 E25.07035
G1 X78.007 Y212.426 E25.0884
G1 X77.084 Y212.822 E25.13517
G1 X76.576 Y213.013 E25.16044
G1 X75.685 Y213.306 E25.20412
G1 X74.782 Y213.519 E25.24732
G1 X74.574 Y213.559 E25.25718
G1 X73.603 Y213.701 E25.30288
G1 X72.95 Y213.767 E25.33344
G1 X71.992 Y213.822 E25.37812
G1 X71.325 Y213.83 E25.40918
G1 X28.511 Y213.829 E27.40278
G1 X27.805 Y213.819 E27.43566
G1 X27.129 Y213.788 E27.46717
G1 X26.839 Y213.766 E27.48071
G1 X25.984 Y213.668 E27.52078
G1 X25.488 Y213.591 E27.54415
G1 X24.466 Y213.382 E27.59273
G1 X24.222 Y213.32 E27.60445
G1 X23.075 Y212.961 E27.66041
G1 X22.896 Y212.894 E27.66931
G1 X21.929 Y212.478 E27.71833
G1 X21.681 Y212.357 E27.73118
G1 X20.635 Y211.775 E27.78692
G1 X20.342 Y211.586 E27.80315
G1 X19.872 Y211.273 E27.82945
G1 X18.768 Y210.432 E27.89407
G1 X18.559 Y210.251 E27.90695
G1 X17.877 Y209.608 E27.95059
G1 X17.461 Y209.156 E27.9792
G1 X17.133 Y208.779 E28.00247
G1 X16.576 Y208.084 E28.04394
G1 X16.339 Y207.753 E28.06289
G1 X16.214 Y207.572 E28.07314
G1 X15.714 Y206.778 E28.11683
G1 X15.281 Y205.937 E28.16087
G1 X15.066 Y205.472 E28.18473
G1 X14.629 Y204.379 E28.23954
G1 X14.534 Y204.098 E28.25335
G1 X14.209 Y202.926 E28.30999
G1 X14.153 Y202.67 E28.32219
G1 X13.978 Y201.631 E28.37125
G1 X13.938 Y201.298 E28.38687
G1 X13.88 Y200.666 E28.41642
G1 X13.866 Y200.44 E28.42696
G1 X13.846 Y199.933 E28.45059
G1 X13.833 Y199.107 E28.48906
G1 X13.832 Y153.331 E30.62058
G1 X13.843 Y152.475 E30.66044
G1 X13.866 Y151.911 E30.68672
G1 X13.901 Y151.473 E30.70719
G1 X13.953 Y150.981 E30.73022
G1 X13.985 Y150.725 E30.74224
G1 X14.096 Y150.021 E30.77542
G1 X14.172 Y149.624 E30.79424
G1 X14.464 Y148.452 E30.85048
G1 X14.509 Y148.306 E30.8576
G1 X14.616 Y147.976 E30.87375
G1 X14.671 Y147.816 E30.88163
G1 X15.473 Y145.346 E31.00256
G1 X16.174 Y142.962 E31.11826
G1 X16.818 Y140.521 E31.23582
G1 X17.392 Y138.062 E31.3534
G1 X17.898 Y135.577 E31.47148
G1 X18.327 Y133.126 E31.58735
G1 X18.691 Y130.616 E31.70544
G1 X18.984 Y128.112 E31.82284
G1 X19.202 Y125.642 E31.9383
G1 X19.353 Y123.11 E32.05641
G1 X19.433 Y120.577 E32.17441
G1 X19.44 Y118.087 E32.29036
G1 X19.376 Y115.53 E32.40946
G1 X19.243 Y113.044 E32.52538
G1 X19.038 Y110.536 E32.64256
G1 X18.762 Y108.041 E32.75944
G1 X18.416 Y105.556 E32.87627
G1 X17.99 Y103.027 E32.99569
G1 X17.513 Y100.603 E33.11073
G1 X16.95 Y98.122 E33.22919
G1 X16.327 Y95.703 E33.34551
G1 X15.635 Y93.292 E33.4623
G1 X14.625 Y90.158 E33.61563
G1 X14.125 Y88.696 E33.68758
G1 X13.788 Y87.486 E33.74606
G1 X13.729 Y87.216 E33.75893
G1 X13.554 Y86.18 E33.80786
G1 X13.514 Y85.847 E33.82347
G1 X13.456 Y85.215 E33.85302
G1 X13.442 Y84.989 E33.86357
G1 X13.422 Y84.482 E33.88719
G1 X13.409 Y83.656 E33.92566
G1 X13.408 Y37.88 E36.05718
G1 X13.419 Y37.024 E36.09705
G1 X13.463 Y36.194 E36.13575
G1 X13.487 Y35.928 E36.14819
G1 X13.526 Y35.556 E36.1656
G1 X13.564 Y35.251 E36.17991
G1 X13.668 Y34.584 E36.21135
G1 X13.725 Y34.28 E36.22575
G1 X13.95 Y33.321 E36.27162
G1 X14.005 Y33.126 E36.28105
G1 X14.183 Y32.556 E36.30886
G1 X14.224 Y32.436 E36.31476
G1 X14.69 Y31.287 E36.3725
G1 X14.787 Y31.082 E36.38306
G1 X15.144 Y30.392 E36.41923
G1 X15.247 Y30.209 E36.42901
G1 X15.702 Y29.469 E36.46946
G1 X15.745 Y29.405 E36.47305
G1 X16.089 Y28.922 E36.50066
G1 X16.443 Y28.452 E36.52806
G1 X16.67 Y28.162 E36.54521
G1 X16.762 Y28.048 E36.55203
G1 X17.381 Y27.344 E36.59568
G1 X18.28 Y26.506 E36.65291
G1 X18.436 Y26.376 E36.66236
G1 X18.829 Y26.063 E36.68576
G1 X19.086 Y25.868 E36.70078
G0 F6000 X19.328 Y26.187
G1 F1200 X19.828 Y25.829 E36.72942
G1 X20.132 Y25.625 E36.74646
G1 X21.247 Y24.972 E36.80663
G1 X21.541 Y24.823 E36.82198
G1 X22.38 Y24.443 E36.86487
G1 X23.046 Y24.2 E36.89788
G1 X23.325 Y24.109 E36.91154
G1 X24.348 Y23.832 E36.96089
G1 X24.563 Y23.785 E36.97114
G1 X25.487 Y23.625 E37.01481
G1 X25.997 Y23.56 E37.03875
G1 X26.348 Y23.521 E37.05519
G1 X26.572 Y23.5 E37.06567
G1 X27.401 Y23.455 E37.10433
G1 X28.157 Y23.445 E37.13953
G1 X70.932 Y23.446 E39.13131
G1 X71.63 Y23.456 E39.16382
G1 X72.174 Y23.478 E39.18917
G1 X72.599 Y23.512 E39.20902
G1 X72.811 Y23.533 E39.21894
G1 X73.081 Y23.563 E39.23159
G1 X73.337 Y23.595 E39.24361
G1 X73.998 Y23.699 E39.27476
G1 X74.388 Y23.773 E39.29325
G1 X75.672 Y24.101 E39.35496
G1 X75.935 Y24.186 E39.36783
G1 X76.382 Y24.341 E39.38986
G1 X77.673 Y24.823 E39.45402
G1 X77.806 Y24.868 E39.46056
G1 X78.111 Y24.985 E39.47577
G1 X80.512 Y25.829 E39.59428
G1 X82.937 Y26.605 E39.71284
G1 X85.325 Y27.296 E39.8286
G1 X87.824 Y27.943 E39.9488
G1 X90.276 Y28.505 E40.06593
G1 X92.74 Y28.994 E40.1829
G1 X95.231 Y29.417 E40.30056
G1 X97.741 Y29.771 E40.41859
G1 X100.246 Y30.052 E40.53596
G1 X102.761 Y30.263 E40.65348
G1 X105.315 Y30.405 E40.77259
G1 X107.816 Y30.472 E40.88909
G1 X110.362 Y30.468 E41.00764
G1 X112.882 Y30.393 E41.12504
G1 X115.372 Y30.249 E41.24118
G1 X117.924 Y30.029 E41.36045
G1 X120.465 Y29.736 E41.47955
G1 X122.916 Y29.385 E41.59485
G1 X125.443 Y28.948 E41.71426
G1 X127.899 Y28.452 E41.83093
G1 X130.359 Y27.883 E41.9485
G1 X132.8 Y27.244 E42.066
G1 X135.257 Y26.526 E42.18519
G1 X137.631 Y25.76 E42.30134
G1 X140.031 Y24.908 E42.41993
G1 X142.408 Y23.989 E42.5386
G1 X144.707 Y23.024 E42.6547
G1 X147.042 Y21.966 E42.77407
G1 X149.284 Y20.872 E42.89023
G1 X151.541 Y19.691 E43.00884
G1 X153.751 Y18.453 E43.12679
G1 X155.34 Y17.5 E43.21307
G1 X155.939 Y17.15 E43.24538
G1 X156.497 Y16.846 E43.27497
G1 X156.724 Y16.731 E43.28681
G1 X157.913 Y16.217 E43.34713
G1 X158.248 Y16.096 E43.36372
G1 X159.55 Y15.718 E43.42685
G1 X159.793 Y15.664 E43.43844
G1 X160.752 Y15.497 E43.48376
G1 X161.262 Y15.432 E43.5077
G1 X161.844 Y15.374 E43.53494
G1 X162.165 Y15.351 E43.54992
G1 X162.782 Y15.325 E43.57868
G1 X163.373 Y15.318 E43.6062
G1 X206.037 Y15.318 E45.59282
G1 X206.887 Y15.329 E45.6324
G1 X207.65 Y15.368 E45.66797
G1 X207.927 Y15.392 E45.68092
G1 X208.327 Y15.434 E45.69965
G1 X208.583 Y15.466 E45.71166
G1 X209.218 Y15.565 E45.74159
G1 X209.592 Y15.635 E45.7593
G1 X210.756 Y15.922 E45.81513
G1 X210.974 Y15.989 E45.82575
G1 X212.202 Y16.451 E45.88684
G1 X212.516 Y16.592 E45.90287
G1 X213.339 Y17.005 E45.94575
G1 X213.752 Y17.248 E45.96806
G1 X213.975 Y17.386 E45.98027
G1 X214.785 Y17.941 E46.02599
G1 X215.222 Y18.271 E46.05149
G1 X215.464 Y18.459 E46.06576
G1 X215.59 Y18.56 E46.07328
G1 X216.282 Y19.167 E46.11614
G1 X217.141 Y20.091 E46.17489
G1 X217.272 Y20.25 E46.18448
G1 X217.503 Y20.541 E46.20178
G1 X217.687 Y20.781 E46.21586
G1 X218.095 Y21.35 E46.24846
G1 X218.311 Y21.674 E46.2666
G1 X218.925 Y22.721 E46.32311
G1 X219.071 Y23.006 E46.33802
G1 X219.455 Y23.843 E46.38091
G1 X219.712 Y24.545 E46.41571
G1 X219.798 Y24.808 E46.4286
G1 X220.067 Y25.784 E46.47574
G1 X220.121 Y26.025 E46.48724
G1 X220.292 Y27.005 E46.53356
G1 X220.357 Y27.516 E46.55755
G1 X220.414 Y28.087 E46.58427
G1 X220.437 Y28.404 E46.59907
G1 X220.464 Y29.031 E46.62829
G1 X220.471 Y29.625 E46.65595
G1 X220.47 Y75.569 E48.7953
G1 X220.46 Y76.267 E48.8278
G1 X220.421 Y77.03 E48.86338
G1 X220.397 Y77.307 E48.87632
G1 X220.355 Y77.707 E48.89505
G1 X220.323 Y77.963 E48.90707
G1 X220.224 Y78.598 E48.93699
G1 X220.154 Y78.972 E48.95471
G1 X219.858 Y80.166 E49.01199
G1 X219.531 Y81.219 E49.06333
G1 X219.374 Y81.696 E49.08671
G1 X218.633 Y84.159 E49.20648
G1 X217.975 Y86.594 E49.32393
G1 X217.384 Y89.053 E49.44169
G1 X216.862 Y91.533 E49.5597
G1 X216.42 Y93.978 E49.6754
G1 X216.033 Y96.525 E49.79536
G1 X215.729 Y98.99 E49.91101
G1 X215.487 Y101.546 E50.03056
G1 X215.321 Y104.066 E50.14815
G1 X215.227 Y106.55 E50.2639
G1 X215.202 Y109.132 E50.38414
G1 X215.249 Y111.644 E50.50113
G1 X215.367 Y114.138 E50.61739
G1 X215.562 Y116.711 E50.73754
G1 X215.819 Y119.185 E50.85336
G1 X216.152 Y121.699 E50.97145
G1 X216.56 Y124.219 E51.09031
G1 X217.031 Y126.688 E51.20735
G1 X217.574 Y129.155 E51.32498
G1 X218.179 Y131.578 E51.44127
G1 X218.874 Y134.056 E51.56111
