;FLAVOR:Marlin
;TIME:12611
;Filament used: 12.3517m
;Layer height: 0.28
;MINX:13.111
;MINY:18.213
;MINZ:0.28
;MAXX:227.196
;MAXY:215.512
;MAXZ:3.08
;Generated with Cura_SteamEngine 4.13.1
M140 S50
M105
M190 S50
M104 S200
M105
M109 S200
M82 ;absolute extrusion mode
; Ender 3 Custom Start G-code
G92 E0 ; Reset Extruder
G28 ; Home all axes
G1 Z2.0 F3000 ; Move Z Axis up little to prevent scratching of Heat Bed
G1 X0.1 Y20 Z0.3 F5000.0 ; Move to start position
G1 X0.1 Y200.0 Z0.3 F1500.0 E15 ; Draw the first line
G1 X0.4 Y200.0 Z0.3 F5000.0 ; Move to side a little
G1 X0.4 Y20 Z0.3 F1500.0 E30 ; Draw the second line
G92 E0 ; Reset Extruder
G1 Z2.0 F3000 ; Move Z Axis up little to prevent scratching of Heat Bed
G1 X5 Y20 Z0.3 F5000.0 ; Move over to prevent blob squish
G92 E0
G92 E0
G1 F2700 E-5
;LAYER_COUNT:11
;LAYER:0
M107
G0 F6000 X20.394 Y21.808 Z0.28
;TYPE:SKIRT
G1 F2700 E0
G1 F1200 X20.569 Y21.658 E0.01073
G1 X20.862 Y21.416 E0.02843
G1 X21.056 Y21.261 E0.03999
G1 X21.592 Y20.859 E0.07119
G1 X21.953 Y20.605 E0.09174
G1 X23.076 Y19.911 E0.15321
G1 X23.29 Y19.796 E0.16453
G1 X24.134 Y19.388 E0.20818
G1 X24.797 Y19.127 E0.24135
G1 X25.147 Y19.002 E0.25866
G1 X26.339 Y18.651 E0.31652
G1 X26.497 Y18.614 E0.32408
G1 X27.504 Y18.427 E0.37177
G1 X28.15 Y18.338 E0.40213
G1 X28.508 Y18.294 E0.41893
G1 X29.548 Y18.228 E0.46745
G1 X30.429 Y18.214 E0.50848
G1 X73.005 Y18.213 E2.491
G1 X73.82 Y18.223 E2.52895
G1 X74.786 Y18.279 E2.57401
G1 X75.228 Y18.324 E2.5947
G1 X75.72 Y18.385 E2.61778
G1 X76.339 Y18.489 E2.64701
G1 X76.783 Y18.577 E2.66808
G1 X78.039 Y18.904 E2.72852
G1 X78.264 Y18.977 E2.73953
G1 X79.143 Y19.304 E2.7832
G1 X79.743 Y19.579 E2.81394
G1 X80.091 Y19.751 E2.83201
G1 X80.412 Y19.916 E2.84882
G1 X81.265 Y20.374 E2.8939
G1 X82.079 Y20.824 E2.93721
G1 X84.306 Y21.976 E3.05396
G1 X86.573 Y23.069 E3.17115
G1 X88.857 Y24.091 E3.28767
G1 X91.204 Y25.063 E3.40595
G1 X93.578 Y25.97 E3.52429
G1 X95.95 Y26.796 E3.64125
G1 X98.32 Y27.549 E3.75704
G1 X100.746 Y28.245 E3.87456
G1 X103.154 Y28.861 E3.9903
G1 X105.669 Y29.432 E4.11039
G1 X108.109 Y29.913 E4.22619
G1 X110.558 Y30.324 E4.34182
G1 X113.094 Y30.676 E4.46104
G1 X115.582 Y30.95 E4.57759
G1 X118.095 Y31.155 E4.695
G1 X120.611 Y31.289 E4.81232
G1 X123.139 Y31.351 E4.93007
G1 X125.66 Y31.343 E5.04746
G1 X128.146 Y31.264 E5.16327
G1 X130.678 Y31.112 E5.28139
G1 X133.178 Y30.891 E5.39825
G1 X135.685 Y30.597 E5.51579
G1 X138.143 Y30.238 E5.63146
G1 X140.682 Y29.794 E5.75148
G1 X143.059 Y29.31 E5.86443
G1 X145.591 Y28.717 E5.98552
G1 X148 Y28.081 E6.10154
G1 X150.399 Y27.376 E6.21797
G1 X152.82 Y26.588 E6.33652
G1 X155.172 Y25.748 E6.45282
G1 X157.512 Y24.839 E6.56971
G1 X159.852 Y23.851 E6.68798
G1 X162.17 Y22.794 E6.80661
G1 X162.787 Y22.501 E6.83842
G1 X163.027 Y22.39 E6.85073
G1 X163.326 Y22.257 E6.86597
G1 X163.958 Y22 E6.89774
G1 X164.487 Y21.803 E6.92402
G1 X165.379 Y21.513 E6.9677
G1 X166.307 Y21.298 E7.01205
G1 X166.548 Y21.253 E7.02347
G1 X167.48 Y21.12 E7.06731
G1 X168.054 Y21.063 E7.09416
G1 X168.979 Y21.01 E7.13731
G1 X169.751 Y21 E7.17326
G1 X212.525 Y21.001 E9.16499
G1 X213.198 Y21.011 E9.19634
G1 X213.739 Y21.033 E9.22155
G1 X214.113 Y21.057 E9.239
G1 X214.825 Y21.126 E9.27231
G1 X215.033 Y21.153 E9.28207
G1 X216.051 Y21.334 E9.33022
G1 X216.408 Y21.415 E9.34727
G1 X217.401 Y21.689 E9.39523
G1 X217.767 Y21.809 E9.41317
G1 X218.645 Y22.139 E9.45684
G1 X219.259 Y22.423 E9.48834
G1 X219.317 Y22.452 E9.49136
G1 X219.867 Y22.747 E9.52042
G1 X220.223 Y22.951 E9.53953
G1 X221.106 Y23.514 E9.58829
G1 X221.27 Y23.63 E9.59765
G1 X221.797 Y24.027 E9.62837
G1 X222.079 Y24.253 E9.6452
G1 X223.031 Y25.112 E9.7049
G1 X223.177 Y25.26 E9.71459
G1 X223.694 Y25.822 E9.75014
G1 X223.821 Y25.97 E9.75922
G1 X224.245 Y26.496 E9.79068
G1 X224.419 Y26.726 E9.80411
G1 X224.968 Y27.522 E9.84914
G1 X225.114 Y27.755 E9.86194
G1 X225.632 Y28.677 E9.91119
G1 X225.768 Y28.949 E9.92535
G1 X226.178 Y29.872 E9.97237
G1 X226.263 Y30.09 E9.98327
G1 X226.629 Y31.2 E10.03769
G1 X226.744 Y31.623 E10.0581
G1 X227.022 Y32.98 E10.1226
G1 X227.08 Y33.443 E10.14433
G1 X227.111 Y33.745 E10.15847
G1 X227.144 Y34.145 E10.17716
G1 X227.165 Y34.464 E10.19204
G1 X227.183 Y34.835 E10.20934
G1 X227.193 Y35.208 E10.22671
G1 X227.196 Y35.524 E10.24143
G1 X227.195 Y81.657 E12.38957
G1 X227.185 Y82.354 E12.42203
G1 X227.145 Y83.142 E12.45877
G1 X227.121 Y83.42 E12.47177
G1 X227.077 Y83.838 E12.49134
G1 X227.045 Y84.094 E12.50335
G1 X226.943 Y84.752 E12.53436
G1 X226.868 Y85.153 E12.55335
G1 X226.656 Y86.067 E12.59704
G1 X226.514 Y86.538 E12.61995
G1 X226.428 Y86.802 E12.63288
G1 X226.278 Y87.233 E12.65413
G1 X225.923 Y88.182 E12.70131
G1 X225.571 Y89.086 E12.74648
G1 X224.729 Y91.441 E12.86294
G1 X223.952 Y93.828 E12.97983
G1 X223.234 Y96.262 E13.09799
G1 X222.593 Y98.689 E13.21488
G1 X222.019 Y101.14 E13.33209
G1 X221.504 Y103.651 E13.45145
G1 X221.08 Y106.083 E13.5664
G1 X220.718 Y108.557 E13.68283
G1 X220.422 Y111.078 E13.80102
G1 X220.199 Y113.587 E13.91831
G1 X220.048 Y116.102 E14.03563
G1 X219.967 Y118.6 E14.15201
G1 X219.958 Y121.119 E14.26931
G1 X220.02 Y123.649 E14.38715
G1 X220.153 Y126.164 E14.50442
G1 X220.357 Y128.678 E14.62187
G1 X220.631 Y131.166 E14.73842
G1 X220.978 Y133.676 E14.85641
G1 X221.388 Y136.12 E14.9718
G1 X221.881 Y138.632 E15.091
G1 X222.429 Y141.048 E15.20636
G1 X223.061 Y143.515 E15.32494
G1 X223.75 Y145.919 E15.44139
G1 X224.757 Y149.053 E15.59467
G1 X225.017 Y149.819 E15.63234
G1 X225.316 Y150.874 E15.6834
G1 X225.368 Y151.099 E15.69415
G1 X225.559 Y152.154 E15.74408
G1 X225.629 Y152.691 E15.76929
G1 X225.679 Y153.15 E15.79079
G1 X225.7 Y153.389 E15.80196
G1 X225.741 Y154.208 E15.84015
G1 X225.75 Y154.961 E15.87521
G1 X225.749 Y200.837 E18.01139
G1 X225.739 Y201.53 E18.04366
G1 X225.719 Y202.057 E18.06822
G1 X225.681 Y202.54 E18.09078
G1 X225.631 Y203.011 E18.11284
G1 X225.598 Y203.276 E18.12527
G1 X225.492 Y203.951 E18.15709
G1 X225.419 Y204.339 E18.17547
G1 X225.086 Y205.658 E18.23882
G1 X225.006 Y205.908 E18.25104
G1 X224.498 Y207.204 E18.31586
G1 X224.387 Y207.442 E18.32808
G1 X223.751 Y208.614 E18.39018
G1 X223.567 Y208.909 E18.40636
G1 X223.006 Y209.725 E18.45247
G1 X222.751 Y210.062 E18.47215
G1 X222.559 Y210.309 E18.48672
G1 X222.421 Y210.481 E18.49699
G1 X221.803 Y211.187 E18.54068
G1 X220.921 Y212.015 E18.59701
G1 X220.77 Y212.142 E18.6062
G1 X220.356 Y212.474 E18.63091
G1 X220.104 Y212.666 E18.64566
G1 X219.552 Y213.06 E18.67724
G1 X219.208 Y213.29 E18.69651
G1 X218.013 Y213.985 E18.76088
G1 X217.747 Y214.118 E18.77473
G1 X216.891 Y214.501 E18.81839
G1 X216.251 Y214.733 E18.85009
G1 X215.97 Y214.825 E18.86386
G1 X214.884 Y215.12 E18.91626
G1 X214.677 Y215.165 E18.92612
G1 X213.73 Y215.328 E18.97087
G1 X213.204 Y215.395 E18.99556
G1 X212.6 Y215.455 E19.02382
G1 X212.279 Y215.478 E19.03881
G1 X211.64 Y215.505 E19.06859
G1 X211.043 Y215.512 E19.09639
G1 X168.223 Y215.511 E21.09027
G1 X167.517 Y215.501 E21.12315
G1 X167.049 Y215.485 E21.14495
G1 X166.554 Y215.45 E21.16806
G1 X166.327 Y215.429 E21.17867
G1 X165.657 Y215.346 E21.21011
G1 X165.276 Y215.287 E21.22806
G1 X164.427 Y215.122 E21.26834
G1 X164.131 Y215.052 E21.2825
G1 X162.908 Y214.686 E21.34194
G1 X162.685 Y214.605 E21.35299
G1 X161.557 Y214.123 E21.41011
G1 X161.337 Y214.014 E21.42154
G1 X161.071 Y213.878 E21.43545
G1 X160.487 Y213.567 E21.46626
G1 X158.9 Y212.696 E21.55056
G1 X156.686 Y211.561 E21.66641
G1 X154.39 Y210.464 E21.78489
G1 X152.097 Y209.449 E21.90166
G1 X149.797 Y208.505 E22.01743
G1 X147.414 Y207.607 E22.13601
G1 X145.036 Y206.785 E22.25316
G1 X142.629 Y206.029 E22.37064
G1 X140.232 Y205.351 E22.48664
G1 X137.739 Y204.72 E22.60638
G1 X135.324 Y204.184 E22.72157
G1 X132.851 Y203.706 E22.83885
G1 X130.364 Y203.298 E22.95621
G1 X127.849 Y202.957 E23.07439
G1 X125.389 Y202.696 E23.18958
G1 X122.858 Y202.498 E23.30779
G1 X120.341 Y202.374 E23.42514
G1 X117.813 Y202.32 E23.54288
G1 X115.293 Y202.337 E23.66022
G1 X112.806 Y202.425 E23.7761
G1 X110.254 Y202.588 E23.89517
G1 X107.797 Y202.815 E24.01007
G1 X105.259 Y203.121 E24.12911
G1 X102.789 Y203.49 E24.2454
G1 X100.292 Y203.936 E24.36351
G1 X97.857 Y204.441 E24.4793
G1 X95.412 Y205.023 E24.59633
G1 X92.958 Y205.68 E24.71463
G1 X90.544 Y206.4 E24.83193
G1 X88.181 Y207.179 E24.94778
G1 X85.781 Y208.044 E25.06657
G1 X83.44 Y208.965 E25.18371
G1 X81.138 Y209.947 E25.30025
G1 X78.804 Y211.021 E25.41988
G1 X77.365 Y211.723 E25.49444
G1 X76.573 Y212.072 E25.53474
G1 X76.215 Y212.213 E25.55265
G1 X75.329 Y212.519 E25.5963
G1 X74.806 Y212.661 E25.62154
G1 X74.586 Y212.715 E25.63208
G1 X73.921 Y212.856 E25.66374
G1 X73.65 Y212.905 E25.67656
G1 X72.745 Y213.031 E25.71911
G1 X72.266 Y213.077 E25.74152
G1 X71.639 Y213.119 E25.77078
G1 X71.484 Y213.125 E25.778
G1 X71.198 Y213.132 E25.79132
G1 X70.584 Y213.139 E25.81991
G1 X27.788 Y213.138 E27.81267
G1 X27.09 Y213.128 E27.84518
G1 X26.526 Y213.105 E27.87146
G1 X26.088 Y213.07 E27.89192
G1 X25.596 Y213.018 E27.91496
G1 X25.34 Y212.986 E27.92697
G1 X24.653 Y212.878 E27.95936
G1 X24.263 Y212.804 E27.97784
G1 X22.907 Y212.456 E28.04303
G1 X22.643 Y212.37 E28.05596
G1 X21.764 Y212.042 E28.09964
G1 X21.246 Y211.806 E28.12615
G1 X20.97 Y211.672 E28.14043
G1 X19.928 Y211.095 E28.1959
G1 X19.775 Y210.999 E28.20431
G1 X18.973 Y210.445 E28.2497
G1 X18.418 Y210.024 E28.28213
G1 X17.696 Y209.426 E28.32579
G1 X17.027 Y208.768 E28.36948
G1 X16.559 Y208.233 E28.40258
G1 X16.2 Y207.795 E28.42895
G1 X15.562 Y206.935 E28.47881
G1 X15.322 Y206.576 E28.49892
G1 X14.835 Y205.775 E28.54257
G1 X14.597 Y205.319 E28.56652
G1 X14.475 Y205.071 E28.57939
G1 X14.097 Y204.212 E28.62309
G1 X13.895 Y203.649 E28.65094
G1 X13.803 Y203.369 E28.66467
G1 X13.507 Y202.284 E28.71703
G1 X13.46 Y202.069 E28.72728
G1 X13.294 Y201.111 E28.77256
G1 X13.229 Y200.601 E28.7965
G1 X13.189 Y200.237 E28.81355
G1 X13.168 Y200.013 E28.82402
G1 X13.121 Y199.152 E28.86417
G1 X13.111 Y198.39 E28.89966
G1 X13.112 Y152.482 E31.03733
G1 X13.122 Y151.784 E31.06983
G1 X13.145 Y151.22 E31.09612
G1 X13.18 Y150.782 E31.11658
G1 X13.232 Y150.29 E31.13961
G1 X13.264 Y150.034 E31.15163
G1 X13.372 Y149.347 E31.18401
G1 X13.446 Y148.957 E31.20249
G1 X13.786 Y147.625 E31.26651
G1 X13.871 Y147.362 E31.27938
G1 X14.139 Y146.625 E31.31589
G1 X14.437 Y145.888 E31.35291
G1 X15.385 Y143.45 E31.47471
G1 X16.232 Y141.071 E31.5923
G1 X17.008 Y138.688 E31.709
G1 X17.714 Y136.285 E31.82562
G1 X18.361 Y133.829 E31.94389
G1 X18.94 Y131.35 E32.06242
G1 X19.437 Y128.905 E32.1786
G1 X19.868 Y126.432 E32.29549
G1 X20.226 Y123.967 E32.41148
G1 X20.52 Y121.453 E32.52934
G1 X20.744 Y118.909 E32.64825
G1 X20.891 Y116.447 E32.7631
G1 X20.971 Y113.899 E32.8818
G1 X20.979 Y111.373 E32.99942
G1 X20.915 Y108.879 E33.11559
G1 X20.78 Y106.361 E33.23301
G1 X20.575 Y103.853 E33.35018
G1 X20.299 Y101.358 E33.46707
G1 X19.948 Y98.838 E33.58554
G1 X19.535 Y96.391 E33.7011
G1 X19.042 Y93.896 E33.81952
G1 X18.492 Y91.475 E33.93513
G1 X17.855 Y88.99 E34.05458
G1 X17.177 Y86.63 E34.16892
G1 X16.621 Y84.903 E34.2534
G1 X16.265 Y83.752 E34.3095
G1 X16.021 Y82.824 E34.35418
G1 X15.978 Y82.625 E34.36366
G1 X15.818 Y81.689 E34.40787
G1 X15.751 Y81.162 E34.43261
G1 X15.691 Y80.561 E34.46074
G1 X15.668 Y80.24 E34.47572
G1 X15.641 Y79.601 E34.5055
G1 X15.634 Y79.004 E34.5333
G1 X15.635 Y32.884 E36.68084
G1 X15.644 Y32.276 E36.70916
G1 X15.701 Y31.314 E36.75403
G1 X15.763 Y30.711 E36.78226
G1 X15.829 Y30.188 E36.8068
G1 X15.924 Y29.634 E36.83298
G1 X15.983 Y29.336 E36.84712
G1 X16.287 Y28.152 E36.90404
G1 X16.35 Y27.953 E36.91376
G1 X16.702 Y26.998 E36.96116
G1 X16.799 Y26.768 E36.97278
G1 X17.266 Y25.796 E37.02299
G1 X17.374 Y25.597 E37.03353
G1 X17.882 Y24.754 E37.07936
G1 X18.003 Y24.572 E37.08954
G1 X18.391 Y24.025 E37.12077
G1 X18.593 Y23.758 E37.13636
G1 X18.775 Y23.523 E37.1502
G1 X18.963 Y23.288 E37.16421
G1 X19.58 Y22.582 E37.20787
G1 X20.394 Y21.808 E37.26017
G0 F6000 X20.655 Y22.112
G1 F1200 X20.83 Y21.962 E37.27091
G1 X21.111 Y21.729 E37.2879
G1 X21.305 Y21.574 E37.29947
G1 X21.822 Y21.186 E37.32957
G1 X22.183 Y20.932 E37.35012
G1 X23.265 Y20.264 E37.40933
G1 X23.479 Y20.149 E37.42064
G1 X24.308 Y19.749 E37.4635
G1 X24.932 Y19.504 E37.49472
G1 X25.282 Y19.379 E37.51202
G1 X26.43 Y19.04 E37.56776
G1 X26.588 Y19.003 E37.57532
G1 X27.558 Y18.823 E37.62126
G1 X28.204 Y18.734 E37.65162
G1 X28.552 Y18.692 E37.66794
G1 X29.555 Y18.628 E37.71474
G1 X30.604 Y18.613 E37.76359
G1 X73.005 Y18.613 E39.73796
G1 X73.815 Y18.623 E39.77568
G1 X74.746 Y18.677 E39.81911
G1 X75.188 Y18.722 E39.83979
G1 X75.665 Y18.781 E39.86217
G1 X76.261 Y18.881 E39.89031
G1 X76.705 Y18.969 E39.91139
G1 X77.915 Y19.284 E39.96961
G1 X78.14 Y19.357 E39.98063
G1 X79.003 Y19.679 E40.02352
G1 X79.566 Y19.937 E40.05235
G1 X79.914 Y20.109 E40.07043
G1 X80.223 Y20.269 E40.08663
G1 X81.071 Y20.724 E40.13144
G1 X81.88 Y21.171 E40.17448
G1 X84.127 Y22.334 E40.2923
G1 X86.414 Y23.436 E40.41051
G1 X88.707 Y24.462 E40.52748
G1 X91.057 Y25.435 E40.64591
G1 X93.432 Y26.343 E40.76431
G1 X95.813 Y27.172 E40.88171
G1 X98.194 Y27.928 E40.99803
G1 X100.641 Y28.631 E41.11658
G1 X103.106 Y29.262 E41.23506
G1 X105.542 Y29.814 E41.35137
G1 X108.037 Y30.306 E41.46978
G1 X110.543 Y30.726 E41.5881
G1 X113.031 Y31.072 E41.70507
G1 X115.541 Y31.349 E41.82265
G1 X118.075 Y31.555 E41.94104
G1 X120.581 Y31.688 E42.05789
G1 X123.13 Y31.752 E42.17662
G1 X125.64 Y31.744 E42.2935
G1 X128.183 Y31.663 E42.41197
G1 X130.701 Y31.511 E42.52943
G1 X133.227 Y31.288 E42.64751
G1 X135.713 Y30.997 E42.76406
G1 X138.238 Y30.628 E42.88288
G1 X140.718 Y30.194 E43.00012
G1 X143.197 Y29.689 E43.11792
G1 X145.654 Y29.114 E43.23542
G1 X148.101 Y28.468 E43.35327
G1 X150.563 Y27.744 E43.47276
G1 X152.93 Y26.973 E43.58868
G1 X155.315 Y26.122 E43.70659
G1 X157.646 Y25.216 E43.82304
G1 X160.011 Y24.217 E43.94259
G1 X162.326 Y23.162 E44.06105
G1 X162.958 Y22.862 E44.09363
G1 X163.19 Y22.756 E44.1055
G1 X163.489 Y22.623 E44.12074
G1 X164.098 Y22.374 E44.15138
G1 X164.627 Y22.177 E44.17766
G1 X165.503 Y21.894 E44.22053
G1 X166.38 Y21.691 E44.26245
G1 X166.621 Y21.646 E44.27386
G1 X167.52 Y21.518 E44.31615
G1 X168.094 Y21.461 E44.34301
G1 X168.985 Y21.41 E44.38456
G1 X169.751 Y21.4 E44.42023
G1 X212.519 Y21.401 E46.41169
G1 X213.192 Y21.411 E46.44303
G1 X213.714 Y21.432 E46.46736
G1 X214.088 Y21.456 E46.48481
G1 X214.774 Y21.522 E46.5169
G1 X214.982 Y21.549 E46.52667
G1 X215.962 Y21.724 E46.57302
G1 X216.319 Y21.805 E46.59007
G1 X217.276 Y22.07 E46.63631
G1 X217.642 Y22.19 E46.65424
G1 X218.504 Y22.514 E46.69712
G1 X219.08 Y22.781 E46.72668
G1 X219.138 Y22.81 E46.7297
G1 X219.668 Y23.094 E46.7577
G1 X220.024 Y23.298 E46.77681
G1 X220.875 Y23.841 E46.82381
G1 X221.039 Y23.957 E46.83317
G1 X221.547 Y24.34 E46.86279
G1 X221.829 Y24.566 E46.87962
G1 X222.746 Y25.393 E46.93712
G1 X222.892 Y25.541 E46.9468
G1 X223.39 Y26.082 E46.98104
G1 X223.517 Y26.23 E46.99012
G1 X223.926 Y26.738 E47.02049
G1 X224.1 Y26.968 E47.03392
G1 X224.629 Y27.735 E47.0773
G1 X224.775 Y27.968 E47.0901
G1 X225.274 Y28.856 E47.13753
G1 X225.41 Y29.128 E47.15169
G1 X225.805 Y30.017 E47.19699
G1 X225.89 Y30.235 E47.20789
G1 X226.243 Y31.305 E47.26035
G1 X226.358 Y31.728 E47.28076
G1 X226.626 Y33.036 E47.34294
G1 X226.682 Y33.484 E47.36396
G1 X226.713 Y33.786 E47.3781
G1 X226.745 Y34.172 E47.39613
G1 X226.766 Y34.491 E47.41102
G1 X226.784 Y34.848 E47.42766
G1 X226.793 Y35.211 E47.44457
G1 X226.796 Y35.527 E47.45928
G1 X226.795 Y81.651 E49.60701
G1 X226.785 Y82.348 E49.63947
G1 X226.747 Y83.108 E49.6749
G1 X226.723 Y83.386 E49.6879
G1 X226.68 Y83.789 E49.70677
G1 X226.648 Y84.045 E49.71878
G1 X226.549 Y84.679 E49.74866
G1 X226.474 Y85.08 E49.76766
G1 X226.134 Y86.414 E49.83176
G1 X226.048 Y86.678 E49.84469
G1 X225.903 Y87.094 E49.8652
G1 X225.607 Y87.889 E49.9047
G1 X225.205 Y88.923 E49.95636
G1 X224.349 Y91.319 E50.07483
G1 X223.564 Y93.729 E50.19286
G1 X222.849 Y96.152 E50.31049
G1 X222.202 Y98.602 E50.42849
G1 X221.631 Y101.04 E50.54508
G1 X221.113 Y103.568 E50.66524
G1 X220.689 Y105.994 E50.77992
G1 X220.32 Y108.524 E50.89897
G1 X220.025 Y111.033 E51.01661
G1 X219.8 Y113.564 E51.13492
G1 X219.65 Y116.065 E51.25159
